<?xml version='1.0' encoding='UTF-8'?>
<map version="1.10" tiledversion="1.11.1" orientation="isometric" renderorder="right-down" width="64" height="64" tilewidth="64" tileheight="32" infinite="0" nextlayerid="5" nextobjectid="1">
 <properties>
  <property name="locationName" value="Forest Crossroads" />
 </properties>
 <tileset firstgid="1" source="background.tsx" />
 <tileset firstgid="31" source="mountin.tsx" />
 <tileset firstgid="63" source="items1.tsx" />
 <tileset firstgid="95" source="items2.tsx" />
 <tileset firstgid="111" source="trees1.tsx" />
 <tileset firstgid="115" source="trees2.tsx" />
 <layer id="1" name="Ground" width="64" height="64">
  <properties>
   <property name="worldRole" value="ground" />
   <property name="worldElevation" value="0.0" type="float" />
  </properties>
  <data encoding="csv">
3,3,3,3,5,2,2,2,2,2,5,2,3,5,3,2,2,5,2,5,5,2,5,2,9,6,9,6,6,8,9,9,23,19,16,19,19,2,5,3,3,5,5,2,5,2,5,8,9,6,8,8,6,6,9,8,8,8,6,9,8,9,5,3,
3,2,3,5,5,3,2,3,5,5,2,5,2,3,3,2,5,5,3,5,2,2,2,6,8,8,6,8,9,9,8,26,21,16,19,21,2,3,3,5,3,3,3,2,3,3,5,3,6,6,8,6,9,8,8,9,9,9,9,9,9,2,3,2,
5,2,3,3,2,3,3,2,3,2,3,5,3,2,2,2,3,3,5,5,3,3,9,6,8,9,9,6,6,9,8,14,21,16,23,17,26,3,2,3,2,5,3,2,2,2,5,6,6,8,9,9,6,8,9,9,9,6,6,9,8,3,2,5,
3,3,2,3,3,3,2,3,2,2,2,5,5,5,3,5,2,2,3,5,5,8,9,6,8,8,6,9,6,9,28,17,21,19,23,16,30,8,6,3,2,2,5,5,3,5,5,9,9,8,6,6,6,6,6,9,6,8,6,9,8,3,3,3,
5,5,3,3,2,2,3,2,2,3,3,5,5,2,3,2,3,3,2,3,9,8,9,6,9,9,6,9,9,8,6,21,21,23,16,26,8,8,9,8,6,5,3,5,2,8,9,8,8,6,9,6,6,6,6,8,9,6,8,8,8,8,5,2,
3,3,3,3,3,2,3,2,2,3,5,2,2,2,2,3,5,3,2,8,9,8,6,6,8,9,6,9,8,26,8,17,19,21,17,6,6,6,9,9,9,6,8,9,8,6,6,8,9,8,6,9,6,8,9,6,9,9,6,6,9,8,8,5,
3,2,3,3,3,5,5,2,2,5,3,5,3,2,5,3,2,3,9,9,9,8,9,6,6,9,9,8,9,30,6,21,17,16,19,26,8,6,8,9,9,8,8,8,8,6,6,9,9,6,8,6,6,8,9,8,9,9,8,6,9,9,8,9,
5,5,2,2,2,2,2,2,2,3,5,2,5,3,2,2,3,9,6,8,6,9,9,6,8,6,8,6,9,8,16,19,21,21,26,9,8,8,9,6,8,8,6,9,8,6,6,6,9,8,9,8,8,8,6,8,9,8,8,6,9,8,6,8,
8,2,3,5,2,3,5,3,2,2,3,5,5,3,3,6,8,9,6,6,8,6,8,8,8,9,6,8,6,6,17,23,19,16,8,9,9,9,9,8,8,8,6,9,6,8,9,9,9,6,8,6,8,6,9,8,8,9,9,8,9,9,8,8,
8,2,5,2,2,5,2,3,2,5,5,3,3,3,9,9,8,6,6,8,6,9,6,6,8,8,6,8,28,8,21,23,19,19,28,8,6,9,6,6,8,6,9,8,8,9,6,9,8,9,8,9,8,8,8,8,9,8,6,9,6,9,6,9,
8,8,3,5,3,3,2,3,2,3,5,3,5,9,6,9,8,6,6,6,8,8,8,6,9,8,8,8,26,23,21,17,19,14,30,8,6,6,6,6,9,8,6,9,8,8,8,8,9,9,8,8,9,9,8,9,9,8,8,8,9,6,9,9,
8,6,6,5,3,3,5,3,2,3,3,2,8,8,8,8,6,8,9,9,6,9,6,6,8,9,6,8,9,16,19,16,16,6,8,6,9,8,9,9,8,8,9,8,9,6,8,8,9,8,9,9,9,8,8,8,8,6,8,8,8,6,9,6,
8,6,8,3,3,2,2,5,2,3,5,9,8,8,8,6,6,9,8,9,6,8,9,9,8,9,6,8,30,19,23,17,21,9,6,6,9,8,8,6,8,8,6,6,8,8,9,8,6,8,9,8,8,8,9,9,8,9,6,9,8,8,9,9,
6,6,9,9,5,5,3,2,5,5,6,8,6,8,9,9,6,8,6,9,9,9,9,8,6,9,6,28,23,17,21,17,30,14,8,6,8,8,8,6,8,6,8,6,8,6,9,6,6,8,6,8,8,9,6,6,6,9,6,8,6,9,8,9,
9,9,6,6,3,5,3,2,2,9,8,6,9,9,8,8,8,6,8,9,9,6,6,6,6,8,8,30,23,19,23,21,14,26,9,8,8,9,9,9,9,6,8,9,9,8,9,8,8,6,6,8,8,8,8,9,8,8,9,8,9,6,9,9,
6,9,8,8,5,2,3,5,2,9,6,6,9,8,8,9,8,8,6,6,6,9,9,6,8,9,26,14,17,19,17,19,26,9,8,9,8,8,6,6,9,9,9,9,6,8,6,9,8,9,9,9,8,9,9,8,6,8,6,8,9,9,9,6,
8,6,6,8,3,2,2,5,3,6,8,6,6,8,8,9,8,8,8,6,8,8,8,8,8,6,30,16,23,17,23,16,8,6,6,9,6,6,9,9,6,6,9,9,6,6,6,6,8,6,9,8,6,8,9,8,9,6,9,6,9,8,6,6,
6,6,6,2,5,3,5,2,5,9,9,8,6,8,9,9,9,8,8,9,6,8,6,6,9,6,26,17,21,19,19,9,14,8,6,8,6,8,8,8,6,9,6,9,9,9,9,6,8,9,6,9,6,9,6,9,6,9,9,9,6,6,6,14,
6,6,2,2,2,5,2,3,2,2,9,6,9,9,6,9,6,8,6,8,6,8,9,8,6,6,28,21,21,23,16,26,9,6,8,9,8,6,6,9,6,3,5,5,5,5,2,3,6,9,6,8,9,9,8,9,9,6,6,6,6,30,30,26,
9,5,5,2,2,3,5,2,5,5,9,8,6,8,9,9,9,6,8,6,8,9,6,6,9,6,16,23,16,23,23,14,9,8,8,9,8,9,9,2,3,3,2,3,5,5,5,2,2,3,8,9,8,8,6,6,8,9,6,8,14,6,21,23,
3,2,5,3,5,3,2,3,3,2,5,6,9,9,9,9,8,8,6,8,8,8,8,6,9,14,14,21,19,19,17,9,6,6,9,6,8,6,3,2,5,2,5,3,5,2,5,3,2,5,3,5,8,9,6,9,8,9,30,30,21,17,19,17,
5,5,3,3,3,3,5,2,5,2,5,5,6,6,9,6,9,8,9,6,9,9,9,8,6,6,30,16,16,21,19,14,8,6,9,6,3,5,5,2,2,3,2,3,3,5,3,5,3,2,2,2,3,6,8,14,6,8,16,23,23,16,17,21,
5,5,2,2,5,2,5,2,2,2,3,3,8,9,9,26,9,6,6,8,8,8,6,8,9,6,6,21,21,16,19,6,6,8,9,5,2,5,3,3,3,5,3,3,2,3,2,2,3,3,3,5,2,14,8,26,19,16,19,21,19,17,16,19,
2,3,3,2,5,5,5,2,2,28,2,3,26,8,6,6,30,28,9,8,9,8,6,9,6,6,14,17,16,16,23,30,8,9,3,5,2,5,2,3,3,5,2,3,3,2,2,2,2,3,2,30,28,5,16,21,19,19,21,17,21,21,8,6,
14,30,28,28,3,5,2,5,28,23,17,21,16,23,21,19,17,21,30,28,9,6,8,9,8,6,30,26,17,23,16,17,30,2,3,2,5,5,3,2,5,3,2,5,2,5,5,5,3,2,14,3,17,16,23,21,19,17,23,17,28,14,8,8,
30,5,16,16,23,17,19,17,17,16,16,19,21,23,16,21,19,19,23,17,9,14,8,8,8,9,30,30,19,19,19,23,28,5,5,3,5,2,2,3,3,2,3,5,2,3,3,2,5,28,19,17,16,23,23,19,21,23,28,14,26,6,6,8,
16,17,17,16,16,21,23,17,17,17,19,17,21,16,19,23,21,17,19,21,19,19,14,14,8,8,6,28,21,16,21,19,5,2,5,2,2,3,2,2,5,2,2,5,3,2,2,5,21,21,19,21,16,19,17,23,14,26,14,9,6,9,6,9,
23,17,23,19,17,19,23,17,16,19,23,16,23,21,28,16,16,19,16,17,21,17,19,16,8,28,8,30,21,21,16,19,2,30,2,5,2,3,2,2,5,3,26,26,3,26,16,21,16,21,19,16,21,17,3,8,14,6,8,8,6,6,6,9,
23,23,16,17,19,21,16,30,26,2,14,3,2,26,6,26,6,17,21,16,16,19,19,19,23,16,8,26,19,23,19,16,14,14,2,3,5,2,14,28,14,2,3,23,16,21,17,17,19,23,23,21,28,28,14,9,8,6,9,9,9,6,9,9,
28,26,26,2,14,14,14,28,5,5,3,5,3,9,9,9,8,26,14,21,19,16,23,17,19,21,16,16,17,23,17,16,17,17,21,28,5,2,5,26,19,16,23,17,23,17,23,17,21,19,2,28,26,5,9,6,8,9,9,8,6,9,8,9,
3,3,5,3,5,2,2,2,5,3,2,3,6,8,9,6,8,6,9,30,9,16,17,23,23,17,21,21,17,23,23,16,19,17,21,21,23,23,17,21,17,19,21,19,21,17,21,23,30,3,30,2,5,6,8,6,6,8,6,6,6,6,9,8,
9,8,6,5,3,3,5,2,2,5,5,9,6,8,9,8,8,9,9,9,9,8,9,16,21,21,23,17,23,17,19,17,16,23,16,19,16,21,21,23,17,16,19,21,21,21,5,2,14,3,5,3,6,9,9,8,9,6,6,8,6,9,6,9,
9,8,9,8,8,9,6,6,6,6,9,6,9,8,9,6,8,8,8,8,6,6,9,26,14,16,16,21,17,17,16,23,17,16,21,21,21,23,16,23,19,19,26,5,2,2,2,5,2,5,5,9,8,8,6,8,8,8,9,8,9,9,9,6,
8,6,9,8,8,6,6,6,9,8,8,8,8,6,9,6,6,6,8,8,9,8,9,8,9,8,23,23,17,19,17,17,17,21,19,21,23,23,26,5,30,28,5,3,3,5,2,2,5,3,6,8,9,8,8,8,8,6,6,6,8,6,8,9,
6,8,9,8,8,8,9,8,6,9,8,8,8,6,9,8,6,8,9,6,6,8,6,6,8,8,17,19,17,19,16,21,23,19,16,19,23,2,3,5,2,3,2,2,5,3,3,3,5,8,8,8,9,8,6,8,6,9,8,6,8,6,8,8,
6,6,8,9,8,9,8,9,6,6,6,6,6,6,9,6,6,9,9,8,9,9,8,8,8,6,23,23,16,19,16,17,23,19,16,19,17,2,3,2,2,3,2,5,5,5,5,5,6,9,6,9,9,6,6,8,6,8,6,6,6,8,8,9,
9,6,8,6,6,6,8,8,6,6,8,8,9,9,6,6,6,9,9,8,8,6,8,9,8,6,6,17,19,19,16,17,16,23,23,17,26,5,3,5,5,3,5,2,3,2,3,6,9,6,6,9,6,8,8,8,9,8,6,6,6,9,6,6,
9,9,6,9,8,8,9,8,6,9,9,6,9,8,9,9,8,6,9,6,9,9,9,6,6,9,30,16,21,17,16,17,21,19,21,21,28,5,2,2,2,5,3,5,5,6,6,8,9,9,6,9,9,9,8,6,8,9,8,6,6,8,8,8,
6,6,9,6,8,8,6,8,8,8,8,9,8,8,6,6,9,6,9,6,8,8,6,9,9,6,28,17,16,21,16,14,30,26,19,19,16,3,28,3,3,3,5,5,8,9,8,6,9,9,9,6,8,8,8,8,9,9,9,8,8,9,6,9,
9,6,6,6,6,9,8,9,8,8,8,6,6,8,8,6,8,8,8,9,6,8,8,8,6,14,17,21,19,23,17,14,9,28,6,19,17,19,5,2,3,3,6,8,6,8,9,6,6,9,8,8,6,6,8,6,8,9,6,6,9,6,8,6,
9,6,8,9,8,9,9,8,8,6,8,6,6,8,8,6,6,6,6,9,6,9,9,6,9,8,21,17,17,23,6,28,6,6,28,23,23,21,17,30,6,8,8,6,19,23,21,16,16,21,21,9,8,6,8,6,9,9,6,9,8,8,6,8,
8,8,8,8,6,9,6,8,9,6,6,9,8,8,9,8,9,6,9,9,6,6,9,6,26,9,23,17,19,19,6,6,9,9,9,8,16,21,16,17,26,28,21,16,17,23,19,16,17,17,21,23,17,9,6,6,8,6,8,9,6,9,6,6,
6,9,8,6,8,6,6,9,8,9,8,6,8,9,8,8,6,8,6,9,6,9,6,9,30,23,23,17,21,21,6,8,9,8,6,28,26,16,17,19,16,21,17,21,19,16,17,23,16,23,16,19,19,21,8,6,6,6,8,9,8,8,9,8,
8,8,8,9,6,8,8,9,8,8,9,6,8,6,9,9,9,9,9,8,9,9,9,26,26,16,16,21,16,8,6,6,8,9,9,6,14,30,16,21,17,19,17,19,16,16,23,19,21,17,16,23,21,16,8,9,8,6,8,9,8,9,9,6,
8,6,6,9,8,8,8,6,9,6,9,8,6,9,8,8,6,9,9,8,8,9,9,26,21,16,19,23,16,28,6,8,8,9,8,6,6,26,30,17,17,17,23,16,16,21,21,17,21,16,17,23,23,23,6,8,6,8,6,9,8,6,6,8,
8,9,6,8,9,9,8,8,6,8,6,8,8,6,6,8,8,9,8,8,6,8,26,9,21,21,21,23,26,28,9,6,6,8,9,8,9,9,30,9,30,16,16,16,19,21,23,21,17,19,23,21,17,19,6,9,6,9,8,9,8,6,9,6,
8,9,9,8,8,8,9,6,6,8,9,8,9,6,9,6,9,8,6,8,9,6,26,19,17,17,23,16,14,9,9,9,8,9,8,6,9,8,6,6,6,17,17,17,17,19,16,23,19,19,19,21,21,17,9,8,8,8,8,8,9,9,6,6,
6,6,8,6,8,8,6,8,9,2,2,5,5,2,2,3,6,8,6,9,8,8,30,21,21,19,16,6,6,8,9,9,6,9,9,8,3,3,2,3,2,17,19,17,23,17,19,23,23,19,23,17,16,17,9,9,8,6,9,9,8,8,6,8,
9,8,6,9,6,9,2,5,2,2,3,5,3,2,5,5,5,2,6,8,6,9,19,17,19,19,21,6,8,9,9,6,6,6,2,3,3,2,5,3,3,17,23,16,21,23,21,23,23,21,19,19,21,21,6,6,8,9,8,6,8,8,9,9,
6,8,8,8,9,2,3,3,2,2,5,2,3,3,2,5,3,5,5,5,5,30,21,17,16,16,28,30,9,6,6,8,8,3,2,2,2,2,3,3,3,3,17,21,17,19,19,23,21,17,17,23,21,6,9,6,8,8,9,8,9,9,8,6,
6,9,6,6,2,2,5,3,3,3,5,2,3,5,2,2,3,5,2,2,5,14,23,17,23,17,14,28,8,6,6,6,5,5,3,2,5,3,3,5,5,2,5,2,23,16,21,19,16,19,19,9,9,9,6,9,6,8,8,8,9,9,9,8,
9,6,2,5,3,2,2,3,2,5,5,5,5,2,5,3,3,2,5,3,3,28,19,21,17,16,30,8,6,9,2,3,2,2,3,2,2,3,2,3,3,5,3,3,3,6,8,9,8,8,6,8,6,8,6,9,6,9,8,8,9,9,9,9,
6,9,2,3,3,5,2,5,3,5,5,2,5,2,3,5,3,2,2,2,3,28,19,23,23,21,14,9,9,3,3,3,2,3,2,3,2,3,3,2,3,2,2,3,5,2,8,9,6,9,6,6,9,9,9,8,8,8,6,8,9,9,6,8,
8,3,2,3,2,5,3,5,3,5,5,5,3,3,5,3,5,3,3,2,5,5,21,21,16,17,26,5,2,5,3,5,5,5,5,2,2,2,5,3,3,3,3,3,3,2,8,8,6,6,8,8,8,8,9,8,6,6,9,8,8,6,8,6,
3,2,3,3,2,5,2,3,3,5,2,3,5,2,2,2,3,2,5,3,26,28,17,21,19,21,14,6,8,9,3,5,3,2,3,5,3,3,2,5,5,3,3,2,5,3,2,9,6,6,8,9,8,6,6,6,8,9,9,6,6,8,9,2,
5,5,2,2,5,3,3,2,3,5,2,5,2,3,2,3,2,3,3,2,28,3,21,19,17,17,26,6,6,9,6,8,5,5,3,2,5,3,2,5,5,3,2,3,3,2,5,6,9,6,8,8,6,8,6,6,8,9,8,8,6,6,6,3,
5,2,3,3,2,2,2,3,2,2,5,2,5,5,3,5,5,2,2,5,14,16,19,19,19,14,6,6,9,9,6,8,9,6,5,5,3,3,3,5,5,2,2,5,5,3,3,8,9,9,8,6,9,6,9,8,8,9,6,9,8,6,3,5,
3,2,2,2,2,5,2,3,2,3,5,2,5,3,2,3,5,5,2,3,14,19,16,16,17,9,9,6,8,8,6,8,9,8,9,6,3,5,5,3,2,3,5,5,5,2,6,8,9,9,9,9,8,9,9,6,9,6,9,9,8,9,5,2,
3,2,5,5,5,5,2,2,3,5,2,5,5,2,2,5,2,2,3,3,2,23,19,16,19,26,9,6,6,8,6,9,9,8,9,9,8,8,5,5,3,5,3,2,5,6,9,6,6,9,8,9,6,9,8,8,9,8,8,9,8,6,8,2,
2,3,2,2,5,5,2,5,3,5,2,3,2,5,5,5,2,3,2,5,28,23,23,23,21,30,6,9,9,6,6,9,6,6,8,9,8,9,9,8,6,6,6,6,6,8,6,8,9,9,9,9,8,9,8,6,9,8,9,9,6,6,8,3,
2,3,5,5,5,3,5,3,3,3,2,3,5,5,2,5,3,2,3,6,14,21,19,23,21,14,8,8,8,6,9,6,9,9,8,6,6,9,8,9,6,9,6,6,8,9,8,9,9,6,9,6,8,9,8,8,9,8,8,6,9,8,9,9,
8,5,3,5,3,2,5,3,3,3,5,5,2,3,5,3,2,3,9,14,8,21,23,17,19,14,8,6,6,8,6,8,9,8,9,6,8,8,6,8,6,8,6,9,9,9,6,8,6,8,9,9,8,9,6,8,6,6,8,9,8,8,9,6,
8,5,2,5,5,3,3,5,2,5,2,5,2,5,5,3,5,9,9,8,6,17,16,19,17,28,6,8,6,6,9,9,8,6,8,6,8,8,6,8,6,6,6,8,8,8,9,8,6,8,8,6,6,6,6,9,8,6,6,8,9,8,8,8,
6,9,2,3,5,2,2,5,2,3,2,5,2,3,5,2,6,6,9,26,23,17,16,19,16,9,8,8,8,6,8,6,9,9,9,6,8,8,6,8,9,9,6,6,9,6,9,9,9,8,9,8,9,9,8,6,8,6,6,8,8,9,8,9
</data>
 </layer>
 <layer id="2" name="Cliffs and obstacles" width="64" height="64">
  <properties>
   <property name="worldRole" value="cutout" />
   <property name="worldSolid" value="true" type="bool" />
  </properties>
  <data encoding="csv">
0,0,0,0,0,0,0,0,0,0,0,0,0,0,0,0,0,0,0,0,0,0,0,0,0,0,0,0,0,0,0,0,0,0,0,0,0,0,0,0,0,0,0,0,0,0,0,0,0,0,0,0,0,0,0,0,0,0,0,0,0,0,0,0,
0,0,0,0,0,0,0,0,0,0,0,0,0,0,0,0,0,0,0,0,0,0,0,0,0,0,0,0,0,0,0,0,0,0,0,0,0,0,0,0,0,0,0,0,0,0,0,0,0,0,0,0,0,0,0,0,0,0,0,0,0,0,0,0,
0,0,0,0,0,0,0,0,0,0,0,0,0,0,0,0,0,0,0,0,0,0,0,0,0,0,0,0,0,0,0,0,0,0,0,0,0,0,0,0,0,0,0,0,0,0,0,0,0,0,0,0,0,0,0,0,0,0,0,0,0,0,0,0,
0,0,0,0,0,0,0,0,0,0,0,0,0,0,0,0,0,0,0,0,0,0,0,0,0,0,0,0,0,0,0,0,0,0,0,0,0,0,0,0,0,0,0,0,0,0,0,0,0,0,0,0,0,0,0,0,0,0,0,0,0,0,0,0,
0,0,0,0,0,0,0,0,0,0,0,0,0,0,0,0,0,0,0,0,0,0,0,0,0,0,0,0,0,0,0,0,0,0,0,0,0,0,0,0,0,0,0,0,0,0,0,0,0,0,0,0,0,0,0,0,0,0,0,0,0,0,0,0,
0,0,0,0,0,0,0,0,0,0,0,0,0,0,0,0,0,0,0,0,0,0,0,0,0,0,0,0,0,0,0,0,0,0,0,0,0,0,0,0,0,0,0,0,0,0,0,0,0,0,0,0,0,0,0,0,0,0,0,0,0,0,0,0,
0,0,0,0,0,0,0,0,0,0,0,0,0,0,0,0,0,0,0,0,0,0,0,0,0,0,0,0,0,0,0,0,0,0,0,0,0,0,0,0,0,0,0,0,0,0,0,0,0,0,0,0,0,0,0,0,0,0,0,0,0,0,0,0,
0,0,0,0,0,0,0,0,0,0,0,0,0,0,0,0,0,0,0,0,0,0,0,0,0,0,0,0,0,0,0,0,0,0,0,0,0,0,0,0,0,0,0,0,0,0,0,0,0,0,0,0,0,0,0,0,0,0,0,0,0,0,0,0,
0,0,0,0,0,0,0,0,0,0,0,0,0,0,0,0,0,0,0,0,0,0,0,0,0,0,0,0,0,0,0,0,0,0,0,0,0,0,0,0,0,0,0,0,0,0,0,0,0,0,0,0,0,0,0,0,0,0,0,0,0,0,0,0,
0,0,0,0,0,0,0,0,0,0,0,0,0,0,0,0,0,0,0,0,0,0,0,0,0,0,0,0,0,0,0,0,0,0,0,0,0,0,0,0,0,0,0,0,0,0,0,0,0,0,0,0,0,0,0,0,0,0,0,0,0,0,0,0,
0,0,0,0,0,0,0,0,0,0,0,0,0,0,0,0,0,0,0,0,0,0,0,0,0,0,0,0,0,0,0,0,0,0,0,0,0,0,0,0,0,0,0,0,0,0,0,0,0,0,0,0,0,0,0,0,0,0,0,0,0,0,0,0,
0,0,0,0,0,0,0,0,0,0,0,0,0,0,0,0,0,0,0,0,0,0,0,0,0,0,0,0,0,0,0,0,0,0,0,0,0,0,0,0,0,0,0,0,0,0,0,0,0,0,0,0,0,0,0,0,0,0,0,0,0,0,0,0,
0,0,0,0,0,0,0,0,0,0,0,0,0,0,0,0,0,0,0,0,0,0,0,0,0,0,0,0,0,0,0,0,0,0,0,0,0,0,0,0,0,0,0,0,0,0,0,0,0,0,0,0,0,0,0,0,0,0,0,0,0,0,0,0,
0,0,0,0,0,0,0,0,0,0,0,0,0,0,0,0,0,0,0,0,0,0,0,0,0,0,0,0,0,0,0,0,0,0,0,0,0,0,0,0,0,0,0,0,0,0,0,0,0,0,0,0,0,0,0,0,0,0,0,0,0,0,0,0,
0,0,0,0,0,0,0,0,0,0,0,0,0,0,0,0,0,0,0,0,0,0,0,0,0,0,0,0,0,0,0,0,0,0,0,0,0,0,0,0,0,0,0,0,0,0,0,0,0,0,0,0,0,0,0,0,0,0,0,0,0,0,0,0,
0,0,0,0,0,0,0,0,0,0,0,0,0,0,0,0,0,0,0,0,0,0,0,0,0,0,0,0,0,0,0,0,0,0,0,0,0,0,0,0,0,0,0,0,0,0,0,0,0,0,0,0,0,0,0,0,0,0,0,0,0,0,0,0,
0,0,0,0,0,0,0,0,0,0,0,0,0,0,0,0,0,0,0,0,0,0,0,0,0,0,0,0,0,0,0,0,0,0,0,0,0,0,0,0,0,0,0,0,0,0,0,0,0,0,0,0,0,0,0,0,0,0,0,0,0,0,0,0,
0,0,0,0,0,0,0,0,0,0,0,0,0,0,0,0,0,0,0,0,0,0,0,0,0,0,0,0,0,0,0,0,0,0,0,0,0,0,0,0,0,0,0,0,0,0,0,0,0,0,0,0,0,0,0,0,0,0,0,0,0,0,0,0,
0,0,0,0,0,0,0,0,0,0,0,0,0,0,0,0,0,0,0,0,0,0,0,0,0,0,0,0,0,0,0,0,0,0,0,0,0,0,0,0,0,0,0,0,0,0,0,0,0,0,0,0,0,0,0,0,0,0,0,0,0,0,0,0,
0,0,0,0,0,0,0,0,0,0,0,0,0,0,0,0,0,0,0,0,0,0,0,0,0,0,0,0,0,0,0,0,0,0,0,0,0,0,0,0,0,0,0,0,0,0,0,0,0,0,0,0,0,0,0,0,0,0,0,0,0,0,0,0,
0,0,0,0,0,0,0,0,0,0,0,0,0,0,0,0,0,0,0,0,0,0,0,0,0,0,0,0,0,0,0,0,0,0,0,0,0,0,0,0,0,0,0,0,0,0,0,0,0,0,0,0,0,0,0,0,0,0,0,0,0,0,0,0,
0,0,0,0,0,0,0,0,0,0,0,0,0,0,0,0,0,0,0,0,0,0,0,0,0,0,0,0,0,0,0,0,0,0,0,0,0,0,0,0,0,0,0,0,0,0,0,0,0,0,0,0,0,0,0,0,0,0,0,0,0,0,0,0,
0,0,0,0,0,0,0,0,0,0,0,0,0,0,0,0,0,0,0,0,0,0,0,0,0,0,0,0,0,0,0,0,0,0,0,0,0,0,0,0,0,0,0,0,0,0,0,0,0,0,0,0,0,0,0,0,0,0,0,0,0,0,0,0,
0,0,0,0,0,0,0,0,0,0,0,0,0,0,0,0,0,0,0,0,0,0,0,0,0,0,0,0,0,0,0,0,0,0,0,0,0,0,0,0,0,0,0,0,0,0,0,0,0,0,0,0,0,0,0,0,0,0,0,0,0,0,0,0,
0,0,0,0,0,0,0,0,0,0,0,0,0,0,0,0,0,0,0,0,0,0,0,0,0,0,0,0,0,0,0,0,0,0,0,0,0,0,0,0,0,0,0,0,0,0,0,0,0,0,0,0,0,0,0,0,0,0,0,0,0,0,0,0,
0,0,0,0,0,0,0,0,0,0,0,0,0,0,0,0,0,0,0,0,0,0,0,0,0,0,0,0,0,0,0,0,0,0,0,0,0,0,0,0,0,0,0,0,0,0,0,0,0,0,0,0,0,0,0,0,0,0,0,0,0,0,0,0,
0,0,0,0,0,0,0,0,0,0,0,0,0,0,0,0,0,0,0,0,0,0,0,0,0,0,0,0,0,0,0,0,0,0,0,0,0,0,0,0,0,0,0,0,0,0,0,0,0,0,0,0,0,0,0,0,0,0,0,0,0,0,0,0,
0,0,0,0,0,0,0,0,0,0,0,0,0,0,0,0,0,0,0,0,0,0,0,0,0,0,0,0,0,0,0,0,0,0,0,0,0,0,0,0,0,0,0,0,0,0,0,0,0,0,0,0,0,0,0,0,0,0,0,0,0,0,0,0,
0,0,0,0,0,0,0,0,0,0,0,0,0,0,0,0,0,0,0,0,0,0,0,0,0,0,0,0,0,0,0,0,0,0,0,0,0,0,0,0,0,0,0,0,0,0,0,0,0,0,0,0,0,0,0,0,0,0,0,0,0,0,0,0,
0,0,0,0,0,0,0,0,0,0,0,0,0,0,0,0,0,0,0,0,0,0,0,0,0,0,0,0,0,0,0,0,0,0,0,0,0,0,0,0,0,0,0,0,0,0,0,0,0,0,0,0,0,0,0,0,0,0,0,0,0,0,0,0,
0,0,0,0,0,0,0,0,0,0,0,0,0,0,0,0,0,0,0,0,0,0,0,0,0,0,0,0,0,0,0,0,0,0,0,0,0,0,0,0,0,0,0,0,0,0,0,0,0,0,0,0,0,0,0,0,0,0,0,0,0,0,0,0,
0,0,0,0,0,0,0,0,0,0,0,0,0,0,0,0,0,0,0,0,0,0,0,0,0,0,0,0,0,0,0,0,0,0,0,0,0,0,0,0,0,0,0,0,0,0,0,0,0,0,0,0,0,0,0,0,0,0,0,0,0,0,0,0,
0,0,0,0,0,0,0,0,0,0,0,0,0,0,0,0,0,0,0,0,0,0,0,0,0,0,0,0,0,0,0,0,0,0,0,0,0,0,0,0,0,0,0,0,0,0,0,0,0,0,0,0,0,0,0,0,0,0,0,0,0,0,0,0,
0,0,0,0,0,0,0,0,0,0,0,0,0,0,0,0,0,0,0,0,0,0,0,0,0,0,0,0,0,0,0,0,0,0,0,0,0,0,0,0,0,0,0,0,0,0,0,0,0,0,0,0,0,0,0,0,0,0,0,0,0,0,0,0,
0,0,0,0,0,0,0,0,0,0,0,0,0,0,0,0,0,0,0,0,0,0,0,0,0,0,0,0,0,0,0,0,0,0,0,0,0,0,0,0,0,0,0,0,0,0,0,0,0,0,0,0,0,0,0,0,0,0,0,0,0,0,0,0,
0,0,0,0,0,0,0,0,0,0,0,0,0,0,0,0,0,0,0,0,0,0,0,0,0,0,0,0,0,0,0,0,0,0,0,0,0,0,0,0,0,0,0,0,0,0,0,0,0,0,0,0,0,0,0,0,0,0,0,0,0,0,0,0,
0,0,0,0,0,0,0,0,0,0,0,0,0,0,0,0,0,0,0,0,0,0,0,0,0,0,0,0,0,0,0,0,0,0,0,0,0,0,0,0,0,0,0,0,0,0,0,0,0,0,0,0,0,0,0,0,0,0,0,0,0,0,0,0,
0,0,0,0,0,0,0,0,0,0,0,0,0,0,0,0,0,0,0,0,0,0,0,0,0,0,0,0,0,0,0,0,0,0,0,0,0,0,0,0,0,0,0,0,0,0,0,0,0,0,0,0,0,0,0,0,0,0,0,0,0,0,0,0,
0,0,0,0,0,0,0,0,0,0,0,0,0,0,0,0,0,0,0,0,0,0,0,0,0,0,0,0,0,0,0,0,0,0,0,0,0,0,0,0,0,0,0,0,0,0,0,0,0,0,0,0,0,0,0,0,0,0,0,0,0,0,0,0,
0,0,0,0,0,0,0,0,0,0,0,0,0,0,0,0,0,0,0,0,0,0,0,0,0,0,0,0,0,0,0,0,0,0,0,0,0,0,0,0,0,0,0,0,0,0,0,0,0,0,0,0,0,0,0,0,0,0,0,0,0,0,0,0,
0,0,0,0,0,0,0,0,0,0,0,0,0,0,0,0,0,0,0,0,0,0,0,0,0,0,0,0,0,0,0,0,0,0,0,0,0,0,0,0,0,0,0,0,0,0,0,0,0,0,0,0,0,0,0,0,0,0,0,0,0,0,0,0,
0,0,0,0,0,0,0,0,0,0,0,0,0,0,0,0,0,0,0,0,0,0,0,0,0,0,0,0,0,0,0,0,0,0,0,0,0,0,0,0,0,0,0,0,0,0,0,0,0,0,0,0,0,0,0,0,0,0,0,0,0,0,0,0,
0,0,0,0,0,0,0,0,0,0,0,0,0,0,0,0,0,0,0,0,0,0,0,0,0,0,0,0,0,0,0,0,0,0,0,0,0,0,0,0,0,0,0,0,0,55,56,0,0,0,0,0,0,0,0,0,0,0,0,0,0,0,0,0,
0,0,0,0,0,0,0,0,0,0,0,0,0,0,0,0,0,0,0,0,0,0,0,0,0,0,0,0,0,0,0,0,0,0,0,0,0,0,0,0,0,0,0,0,0,0,0,0,0,0,0,0,0,0,0,0,0,0,0,0,0,0,0,0,
0,0,0,0,0,0,0,0,0,0,0,0,0,0,0,0,0,0,0,0,0,0,0,0,0,0,0,0,0,0,0,0,0,0,0,0,0,0,0,0,0,0,0,0,0,0,0,0,0,57,58,0,0,0,0,0,0,0,0,0,0,0,0,0,
0,0,0,0,0,0,0,0,0,0,0,0,0,0,0,0,0,0,0,0,0,0,0,0,0,0,0,0,0,0,0,0,0,0,0,0,0,0,0,0,0,0,0,0,0,0,0,0,0,0,0,0,0,0,0,0,0,0,0,0,0,0,0,0,
0,0,0,0,0,0,0,0,0,0,0,0,0,0,0,0,0,0,0,0,0,0,0,0,0,0,0,0,0,0,0,0,0,0,0,0,0,0,0,0,0,0,0,0,0,0,0,0,0,0,0,0,0,0,0,0,0,0,0,0,0,0,0,0,
0,0,0,0,0,0,0,0,0,0,0,0,0,0,0,0,0,0,0,0,0,0,0,0,0,0,0,0,0,0,0,0,0,0,0,0,0,0,0,0,0,0,0,0,0,0,0,0,0,0,0,0,0,0,0,0,0,0,0,0,0,0,0,0,
0,0,0,0,0,0,0,0,0,0,0,0,0,0,0,0,0,0,0,0,0,0,0,0,0,0,0,0,0,0,0,0,0,0,0,0,0,0,0,0,0,0,0,0,0,0,0,0,0,0,0,0,0,0,0,0,0,0,0,0,0,0,0,0,
0,0,0,0,0,0,0,0,0,0,0,0,0,0,0,0,0,0,0,0,0,0,0,0,0,0,0,0,0,0,0,0,0,0,0,0,0,0,0,0,0,0,0,0,0,0,0,0,0,0,0,0,0,0,0,0,0,0,0,0,0,0,0,0,
0,0,0,0,0,0,0,0,0,0,0,0,0,0,0,0,0,0,0,0,0,0,0,0,0,0,0,0,0,0,0,0,0,0,0,0,0,0,0,0,0,0,73,73,73,73,73,0,0,0,0,0,0,0,0,0,0,0,0,0,0,0,0,0,
0,0,0,0,0,0,0,0,0,0,0,0,0,0,0,0,0,0,0,0,0,0,0,0,0,0,0,0,0,0,0,0,0,0,0,0,0,0,0,0,0,0,0,0,0,0,0,0,0,0,0,0,0,0,0,0,0,0,0,0,0,0,0,0,
0,0,0,0,0,0,0,0,0,0,0,0,0,0,0,0,0,0,0,0,0,0,0,0,0,0,0,0,0,0,0,0,0,0,0,0,0,0,0,0,0,0,0,0,0,0,0,0,0,0,0,0,0,0,0,0,0,0,0,0,0,0,0,0,
0,0,0,0,0,0,0,0,0,0,0,0,0,0,0,0,0,0,0,0,0,0,0,0,0,0,0,0,0,0,0,0,0,0,0,0,0,0,0,0,0,0,0,0,0,0,0,0,0,0,0,0,0,0,0,0,0,0,0,0,0,0,0,0,
0,0,0,0,0,0,0,0,0,0,0,0,0,0,0,0,0,0,0,0,0,0,0,0,0,0,0,0,0,0,0,0,0,0,0,0,0,0,0,0,0,0,0,0,0,0,0,0,0,0,0,0,0,0,0,0,0,0,0,0,0,0,0,0,
0,0,0,0,0,0,0,0,0,0,0,0,0,0,0,0,0,0,0,0,0,0,0,0,0,0,0,0,0,0,0,0,0,0,0,0,0,0,0,0,0,0,0,0,0,0,0,0,0,0,0,0,0,0,0,0,0,0,0,0,0,0,0,0,
0,0,0,0,0,0,0,0,0,0,0,0,0,0,0,0,0,0,0,0,0,0,0,0,0,0,0,0,0,0,0,0,0,0,0,0,0,0,0,0,0,0,0,0,0,0,0,0,0,0,0,0,0,0,0,0,0,0,0,0,0,0,0,0,
0,0,0,0,0,0,0,0,0,0,0,0,0,0,0,0,0,0,0,0,0,0,0,0,0,0,0,0,0,0,0,0,0,0,0,0,0,0,0,0,0,0,0,0,0,0,0,0,0,0,0,0,0,0,0,0,0,0,0,0,0,0,0,0,
0,0,0,0,0,0,0,0,0,0,0,0,0,0,0,0,0,0,0,0,0,0,0,0,0,0,0,0,0,0,0,0,0,0,0,0,0,0,0,0,0,0,0,0,0,0,0,0,0,0,0,0,0,0,0,0,0,0,0,0,0,0,0,0,
0,0,0,0,0,0,0,0,0,0,0,0,0,0,0,0,0,0,0,0,0,0,0,0,0,0,0,0,0,0,0,0,0,0,0,0,0,0,0,0,0,0,0,0,0,0,0,0,0,0,0,0,0,0,0,0,0,0,0,0,0,0,0,0,
0,0,0,0,0,0,0,0,0,0,0,0,0,0,0,0,0,0,0,0,0,0,0,0,0,0,0,0,0,0,0,0,0,0,0,0,0,0,0,0,0,0,0,0,0,0,0,0,0,0,0,0,0,0,0,0,0,0,0,0,0,0,0,0,
0,0,0,0,0,0,0,0,0,0,0,0,0,0,0,0,0,0,0,0,0,0,0,0,0,0,0,0,0,0,0,0,0,0,0,0,0,0,0,0,0,0,0,0,0,0,0,0,0,0,0,0,0,0,0,0,0,0,0,0,0,0,0,0,
0,0,0,0,0,0,0,0,0,0,0,0,0,0,0,0,0,0,0,0,0,0,0,0,0,0,0,0,0,0,0,0,0,0,0,0,0,0,0,0,0,0,0,0,0,0,0,0,0,0,0,0,0,0,0,0,0,0,0,0,0,0,0,0,
0,0,0,0,0,0,0,0,0,0,0,0,0,0,0,0,0,0,0,0,0,0,0,0,0,0,0,0,0,0,0,0,0,0,0,0,0,0,0,0,0,0,0,0,0,0,0,0,0,0,0,0,0,0,0,0,0,0,0,0,0,0,0,0
</data>
 </layer>
 <layer id="3" name="Scattered details" width="64" height="64">
  <properties>
   <property name="worldRole" value="cutout" />
  </properties>
  <data encoding="csv">
0,0,0,0,0,0,0,0,0,0,0,0,0,0,0,0,0,0,0,0,0,0,0,0,0,0,0,0,0,0,0,0,0,0,0,0,0,0,0,0,0,0,0,0,0,0,0,0,0,0,0,0,0,0,0,0,0,0,0,0,0,0,0,0,
0,0,0,0,0,0,0,0,0,0,0,92,0,0,0,95,0,0,0,0,0,0,0,0,0,0,0,0,0,0,0,0,0,0,0,0,0,0,0,0,0,0,0,80,0,0,0,0,0,0,0,0,0,0,0,0,95,83,0,0,0,0,0,0,
0,0,103,0,0,93,93,0,0,0,0,0,0,84,0,0,0,0,0,0,0,0,0,0,90,0,94,0,0,0,0,0,0,0,0,0,0,0,93,0,0,0,0,0,0,0,0,0,83,0,0,0,0,0,0,0,0,0,0,0,0,0,0,0,
0,0,0,0,0,0,0,0,0,103,88,0,0,0,0,0,0,0,0,0,0,0,0,0,92,0,0,0,0,0,0,0,0,0,0,0,0,0,0,0,0,0,0,0,0,0,0,0,0,0,0,0,0,0,0,79,0,0,0,0,0,0,0,0,
0,0,0,0,0,0,0,0,0,0,0,0,0,0,0,0,0,0,0,0,0,80,0,0,0,0,0,0,0,0,0,0,0,0,0,0,0,0,0,0,0,0,0,0,0,0,0,0,0,0,0,0,0,0,0,0,0,0,0,0,0,0,0,0,
0,0,0,0,0,0,0,0,0,0,0,0,0,0,0,0,0,0,0,0,0,0,0,0,0,0,0,0,0,0,0,0,0,0,0,0,0,0,0,0,0,0,0,0,92,0,0,0,0,0,0,88,0,0,0,0,103,0,0,0,0,0,0,0,
0,0,0,0,0,0,0,80,0,0,0,0,0,0,0,0,0,0,0,0,0,0,0,0,0,0,0,0,0,0,0,0,0,0,0,0,0,0,0,0,0,0,0,0,79,0,0,0,0,0,93,0,0,0,0,0,0,0,0,0,0,0,0,0,
0,0,0,0,0,0,0,0,0,0,0,0,0,0,95,0,0,0,0,0,0,0,0,0,0,94,0,93,0,0,0,0,0,0,0,0,0,79,0,0,0,0,0,0,0,0,0,0,0,0,0,0,0,0,0,0,0,0,0,0,0,0,0,0,
0,0,0,0,79,0,0,0,0,0,92,0,0,0,95,0,84,0,0,0,0,0,0,0,0,0,0,0,0,0,0,0,0,0,0,0,0,0,92,0,0,0,0,0,0,0,0,0,0,0,0,0,0,0,0,0,0,0,0,0,0,0,0,0,
0,0,0,0,95,0,94,0,0,0,0,0,0,0,0,90,0,0,0,0,79,0,0,0,0,0,0,0,0,0,0,0,0,0,0,0,0,0,0,0,0,0,0,0,0,0,0,0,0,0,0,0,0,0,0,0,0,0,0,92,0,0,0,0,
0,0,0,0,0,0,0,88,0,0,0,0,0,0,0,0,0,0,0,0,0,0,83,0,0,0,0,0,0,0,0,0,0,0,0,0,0,0,0,0,0,0,0,80,0,94,0,0,0,0,0,0,0,0,0,0,0,0,0,0,79,0,0,0,
0,0,0,0,0,0,0,0,0,0,0,0,0,0,0,0,0,0,0,0,0,0,0,0,0,0,0,0,0,0,0,0,0,0,0,0,79,0,98,0,0,0,80,95,94,0,84,79,0,0,0,90,0,0,0,0,0,0,0,0,0,0,90,0,
0,92,0,0,0,0,0,0,0,0,0,0,0,0,0,0,0,0,0,0,0,0,0,90,0,0,0,0,0,0,0,0,0,0,0,0,0,0,95,0,0,0,0,0,0,0,0,0,0,0,0,0,0,0,0,0,0,0,0,0,0,0,0,0,
0,0,0,0,0,0,0,0,0,0,0,0,0,0,0,0,0,0,0,0,0,0,0,0,0,0,0,0,0,0,0,0,0,0,0,0,0,0,88,0,84,0,0,0,79,0,0,0,0,0,0,0,0,80,0,0,0,0,0,0,83,80,0,0,
0,0,0,0,0,0,0,0,0,0,0,0,0,0,0,88,0,98,0,0,94,0,0,0,0,0,0,0,0,0,0,0,0,0,0,0,0,0,0,0,0,0,98,0,93,0,0,0,83,0,0,0,0,0,0,0,79,0,0,0,0,0,0,0,
0,0,0,0,0,0,94,83,79,0,84,0,0,0,0,0,0,0,88,0,0,0,0,0,0,0,0,0,0,0,0,0,0,0,98,0,0,83,0,0,0,0,0,92,0,0,0,0,0,0,0,0,0,0,0,0,0,0,0,0,0,0,0,0,
0,0,84,83,0,0,0,0,0,0,103,0,0,0,92,88,0,0,84,0,0,0,0,0,0,0,0,0,0,0,0,0,0,0,0,0,0,0,0,0,79,0,0,0,94,0,0,0,0,90,0,0,0,0,0,0,0,0,83,0,0,0,90,0,
0,0,0,95,0,90,0,0,0,0,0,0,0,0,0,0,0,0,0,0,0,0,0,0,0,0,0,0,0,0,0,0,0,0,0,0,0,0,0,0,103,0,0,0,88,0,90,0,0,0,0,0,0,0,0,0,0,0,0,0,0,0,0,0,
0,0,0,0,0,0,94,0,0,84,0,0,0,0,0,0,0,0,0,98,0,0,0,0,0,0,0,0,0,0,0,0,0,0,0,0,0,0,0,0,0,103,0,0,0,0,0,0,0,0,0,0,0,0,0,0,93,98,88,0,0,0,0,0,
0,0,0,0,0,0,0,94,0,0,0,0,0,0,0,0,0,0,0,0,0,0,0,0,0,0,0,0,0,0,0,0,0,0,0,0,0,0,0,0,0,0,84,0,0,0,0,0,0,0,0,0,0,0,0,0,0,0,0,0,0,0,0,0,
0,0,0,0,83,0,0,95,103,0,0,0,0,93,0,0,0,0,98,0,98,0,0,0,0,0,0,0,0,0,0,0,0,92,0,0,0,0,0,0,0,0,0,0,0,0,0,0,0,0,0,0,0,0,0,0,0,0,0,0,0,0,0,0,
0,0,0,0,80,0,0,0,0,0,0,79,0,0,0,0,0,0,0,0,0,0,0,0,0,0,0,0,0,0,0,0,0,103,0,0,0,0,94,93,0,0,95,0,103,0,0,0,93,0,0,79,0,0,0,0,0,0,0,0,0,0,0,0,
0,0,0,0,0,0,0,0,0,0,0,0,0,0,0,0,0,0,0,0,0,0,0,0,83,0,0,0,0,0,0,0,0,0,0,0,0,0,95,0,0,0,0,0,0,0,0,94,0,0,103,0,0,0,0,0,0,0,0,0,0,0,0,0,
0,0,0,0,0,0,0,0,0,0,0,0,0,0,0,0,0,0,0,0,0,0,0,0,0,0,0,0,0,0,0,0,0,0,0,0,0,0,0,0,0,0,0,0,0,0,0,0,0,0,0,0,0,0,0,0,0,0,0,0,0,0,0,0,
0,0,0,0,0,0,0,0,0,0,0,0,0,0,0,0,0,0,0,0,0,0,0,90,0,0,0,0,0,0,0,0,0,0,0,92,0,0,0,0,0,103,0,0,0,0,0,0,0,0,0,0,0,0,0,0,0,0,0,0,0,0,0,0,
0,0,0,0,0,0,0,0,0,0,0,0,0,0,0,0,0,0,0,0,0,0,0,0,0,0,0,0,0,0,0,0,0,0,0,0,0,0,0,0,93,0,0,0,0,0,0,0,0,0,0,0,0,0,0,0,0,0,0,0,0,0,0,0,
0,0,0,0,0,0,0,0,0,0,0,0,0,0,0,0,0,0,0,0,0,0,0,0,0,0,0,0,0,0,0,0,0,0,0,0,0,0,103,0,98,0,0,0,0,0,0,0,0,0,0,0,0,0,0,0,0,0,0,0,0,0,0,0,
0,0,0,0,0,0,0,0,0,0,0,0,0,0,0,0,0,0,0,0,0,0,0,0,0,0,0,0,0,0,0,0,0,0,0,0,0,0,80,0,0,0,0,0,0,0,0,0,0,0,0,0,0,0,0,0,0,0,0,0,0,0,0,0,
0,0,0,0,0,0,0,0,0,0,0,0,0,0,0,0,0,0,0,0,103,0,0,0,0,0,0,0,0,0,0,0,0,0,0,0,0,0,0,0,0,0,0,0,0,0,0,0,0,0,0,0,0,0,0,0,0,0,0,0,84,0,0,0,
0,0,0,0,0,0,0,0,0,0,0,0,0,0,92,0,0,0,0,0,0,0,0,0,0,0,0,0,0,0,0,0,0,0,0,0,0,0,0,0,0,0,0,0,0,0,0,0,0,0,0,0,0,0,0,0,0,0,0,0,0,0,0,0,
0,0,0,0,0,0,0,0,0,0,0,0,0,84,0,0,0,0,0,0,0,0,0,0,0,0,0,0,0,0,0,0,0,0,0,105,0,0,0,0,0,0,0,0,0,0,0,0,0,0,0,0,0,0,0,0,0,90,0,0,0,0,0,0,
0,0,0,0,0,0,0,0,0,0,0,0,0,0,94,90,0,0,0,0,0,0,0,0,0,0,0,0,0,0,0,0,0,0,0,0,0,0,0,0,0,0,0,0,0,0,0,0,0,0,0,0,0,0,88,0,0,98,0,0,0,0,0,0,
0,84,90,0,0,0,0,0,0,0,0,0,0,0,0,0,0,0,94,0,0,0,0,0,0,0,0,0,0,0,0,0,0,0,0,0,0,0,0,0,0,0,0,0,0,0,0,0,0,0,0,0,0,0,0,0,0,98,0,0,0,0,0,0,
0,93,0,0,0,0,95,0,0,0,0,80,0,79,0,0,0,0,90,0,0,80,0,0,0,0,0,0,0,0,0,0,0,0,0,0,0,0,0,0,0,0,0,0,0,0,0,0,0,0,88,0,0,90,0,0,0,0,0,0,0,0,0,0,
0,0,0,0,79,0,0,0,0,83,0,0,0,0,98,0,0,0,0,0,0,0,0,0,0,0,0,0,0,0,0,0,0,0,0,0,0,0,0,0,0,0,0,0,0,0,0,0,0,0,79,0,0,94,0,0,0,0,0,0,0,0,0,0,
0,0,98,0,0,0,0,0,0,0,83,0,0,0,0,0,0,0,0,95,0,93,0,0,0,0,0,0,0,0,0,0,0,0,0,0,0,0,0,0,0,0,0,0,0,0,0,0,0,0,0,0,0,0,0,0,0,0,0,0,0,0,0,0,
0,0,0,0,0,83,0,0,0,0,0,0,0,0,0,0,0,0,0,0,0,0,95,0,0,0,0,0,0,0,0,0,0,0,0,0,0,0,0,0,95,83,0,84,0,0,0,0,0,0,0,88,83,0,0,0,0,80,0,0,0,0,0,0,
0,0,88,0,83,0,0,0,0,0,88,0,92,0,90,0,0,0,0,0,0,0,0,0,0,0,0,0,0,0,0,0,0,0,0,0,0,0,0,0,88,0,0,0,0,0,0,0,0,0,95,0,0,0,0,0,0,0,0,0,0,0,0,0,
0,0,0,0,0,0,83,0,0,0,0,0,0,0,0,0,0,0,0,0,0,79,0,92,80,0,0,0,0,0,0,0,0,0,0,0,0,0,0,0,98,0,0,0,0,0,0,0,0,0,0,0,0,0,0,0,0,0,0,0,0,0,0,0,
0,98,98,0,0,0,0,0,0,0,0,0,0,0,88,0,0,0,0,0,0,0,0,83,0,0,0,0,0,0,0,0,0,0,0,0,0,0,0,0,0,0,0,0,0,0,0,0,0,0,0,0,0,0,0,0,0,0,0,0,0,0,0,0,
0,0,90,0,0,0,0,0,0,0,0,0,0,98,0,0,0,0,0,0,0,0,0,0,0,0,0,0,0,0,0,0,0,0,0,0,0,0,0,0,0,0,0,0,0,0,0,0,0,0,0,0,0,0,0,0,0,92,0,0,0,0,0,0,
0,0,0,79,0,90,0,0,95,0,0,0,88,0,0,0,0,0,0,0,0,0,94,0,0,0,0,0,0,0,0,0,0,0,0,0,0,0,0,0,0,0,0,0,0,0,0,0,0,0,0,0,0,0,0,0,0,0,0,0,0,0,0,0,
0,0,0,0,0,0,0,0,98,0,0,0,0,0,0,0,0,0,0,0,0,0,93,0,0,0,0,0,0,0,0,0,0,0,0,0,0,0,0,0,0,0,0,0,0,0,0,0,0,0,0,0,0,0,0,0,0,0,0,0,0,0,0,0,
0,0,0,0,94,92,0,0,0,0,0,0,103,0,0,0,0,0,0,0,0,0,0,0,0,0,0,0,0,0,0,0,0,0,0,0,0,0,0,0,0,0,0,0,0,0,0,0,0,0,0,0,0,0,0,0,0,0,0,0,0,0,0,0,
0,0,0,0,0,0,0,83,0,0,0,0,0,0,0,0,0,0,0,0,0,0,0,0,0,0,0,0,0,0,0,0,0,0,0,0,0,0,0,0,0,0,0,0,0,0,0,0,0,0,0,0,0,0,0,0,0,0,0,0,0,94,0,0,
0,0,0,95,0,0,0,0,0,0,0,0,0,0,0,0,0,0,0,80,0,0,0,0,0,0,0,0,0,0,0,0,0,98,0,0,0,0,0,0,0,0,0,63,0,0,0,0,0,0,0,0,0,0,0,0,0,0,0,0,0,0,0,0,
0,79,0,0,0,0,0,0,0,0,95,0,0,0,0,0,0,0,0,80,0,0,0,0,0,0,0,0,0,0,0,0,0,0,0,0,88,94,0,0,0,0,0,67,0,0,69,0,0,0,0,0,0,0,0,0,0,0,92,0,0,94,0,0,
0,0,0,0,83,0,0,0,0,0,0,0,0,0,0,0,0,0,0,0,0,0,0,0,0,0,0,0,0,0,0,0,0,0,0,0,0,94,0,0,0,0,0,0,0,0,0,0,0,0,0,0,0,0,0,0,0,88,0,0,0,0,0,0,
0,0,0,0,83,0,0,0,0,0,0,0,0,0,0,0,79,0,0,0,0,0,0,0,0,0,0,0,0,98,0,0,0,90,0,83,0,83,0,0,0,0,0,0,0,0,0,0,98,0,65,0,0,0,0,0,0,0,0,0,0,0,0,0,
0,98,0,95,84,0,0,0,0,0,83,0,0,94,0,0,0,0,0,0,0,0,0,0,0,0,0,0,0,92,0,0,0,0,90,0,98,0,0,0,0,0,0,0,0,0,0,0,0,0,0,0,0,0,0,0,0,0,0,0,0,0,0,0,
0,93,0,0,0,0,95,0,0,0,0,0,0,83,0,0,0,0,0,0,0,0,0,0,0,0,0,0,0,0,0,0,0,0,0,80,0,0,0,0,0,0,0,0,0,0,0,0,0,0,0,0,0,0,0,0,0,0,0,0,0,0,80,0,
0,0,0,0,0,0,0,0,0,90,0,0,0,0,0,0,0,0,0,0,0,0,0,0,0,0,0,0,0,0,0,0,0,0,0,0,0,0,0,0,0,94,0,0,0,0,0,0,0,0,0,0,0,0,0,0,0,0,0,0,0,0,0,0,
0,0,0,0,0,0,0,0,0,0,0,0,94,0,0,90,0,0,0,0,0,0,0,0,0,0,0,0,0,0,94,0,0,0,0,0,0,0,93,93,0,0,0,0,0,0,0,0,0,0,0,0,84,0,0,0,0,0,0,0,0,0,0,0,
0,98,0,0,0,0,0,0,0,0,80,0,0,0,0,0,0,0,0,92,0,0,0,0,0,0,0,0,0,0,0,0,0,0,0,0,0,0,0,0,0,0,0,0,0,90,0,0,0,0,0,0,0,0,0,0,0,0,0,0,0,103,0,0,
0,0,0,0,0,0,0,0,0,0,90,0,0,0,0,0,98,0,0,0,0,0,0,0,0,0,0,0,0,0,0,0,0,0,0,79,0,0,83,0,0,0,0,0,95,0,0,0,0,0,0,0,0,0,98,0,0,0,0,0,0,0,80,0,
0,83,0,0,0,0,0,0,0,0,0,0,0,0,0,0,0,0,0,0,0,0,0,0,0,0,0,0,0,0,0,95,0,0,0,0,0,95,0,0,0,0,0,0,0,0,0,0,0,0,0,0,0,0,0,0,0,0,0,0,0,0,0,0,
0,0,88,0,94,0,0,0,0,0,0,0,0,0,0,0,0,0,0,0,0,0,0,0,0,0,0,0,0,0,0,0,0,0,0,0,0,0,0,0,0,0,0,84,0,0,0,90,94,0,0,0,0,0,0,0,0,0,88,0,98,0,0,0,
0,0,0,0,0,0,0,0,0,0,0,0,0,0,0,0,0,0,0,0,0,0,0,0,0,0,0,0,0,0,0,0,0,0,0,0,0,0,0,0,0,0,0,0,0,0,0,0,0,0,0,0,0,0,0,0,0,0,0,0,0,0,0,0,
0,0,0,0,0,0,0,95,0,0,0,0,0,92,0,0,0,0,0,0,0,0,0,0,0,0,0,0,0,0,0,80,0,0,80,0,0,0,0,0,0,0,0,0,103,0,0,0,0,0,0,0,0,0,0,98,0,0,0,0,0,93,0,0,
0,80,92,0,0,98,0,0,0,0,0,0,83,0,0,0,0,0,0,0,0,0,0,0,0,0,0,0,0,0,0,0,0,0,0,0,0,0,0,0,0,0,0,0,0,0,0,0,0,0,0,0,0,0,0,0,0,0,0,0,0,79,0,0,
0,0,0,0,0,0,0,0,0,0,0,0,0,0,0,0,0,0,0,0,0,0,0,0,0,0,0,0,0,0,0,0,0,0,0,0,0,0,0,0,0,90,0,92,0,0,0,0,0,0,92,0,0,0,0,0,83,0,0,0,0,94,0,0,
0,0,0,0,0,0,0,98,0,0,0,0,0,92,0,0,0,0,0,0,0,0,0,0,0,0,0,0,0,0,0,0,0,0,88,0,0,0,0,0,88,0,0,0,0,0,0,0,0,0,0,0,0,0,0,0,0,0,0,0,98,0,0,0,
0,94,0,0,0,0,0,0,0,0,0,0,88,0,0,0,0,0,0,0,0,0,0,0,0,0,0,0,0,0,0,0,0,0,0,0,88,0,0,0,88,0,0,0,0,0,80,0,79,0,0,0,0,0,0,0,0,0,0,0,0,0,0,0,
0,0,0,0,0,0,0,0,0,0,0,0,0,0,0,0,0,0,0,0,0,0,0,0,0,0,0,0,0,0,0,0,0,0,0,0,0,0,0,0,0,0,0,0,0,0,0,0,0,0,0,0,0,0,0,0,0,0,0,0,0,0,0,0
</data>
 </layer>
 <layer id="4" name="Trees" width="64" height="64">
  <properties>
   <property name="worldRole" value="cutout" />
   <property name="worldSolid" value="true" type="bool" />
  </properties>
  <data encoding="csv">
0,0,0,0,0,0,0,0,0,0,0,0,0,0,0,0,0,0,0,0,0,0,0,0,0,0,0,0,0,0,0,0,0,0,0,0,0,0,0,0,0,0,0,0,0,0,0,0,0,0,0,0,0,0,0,0,0,0,0,0,0,0,0,0,
0,0,0,112,0,0,0,0,0,0,0,0,0,0,115,0,0,0,0,0,0,111,0,0,0,0,116,0,0,117,0,0,0,0,0,0,0,0,0,0,0,0,0,0,0,115,0,0,116,0,0,111,0,0,116,0,0,0,0,117,0,0,0,0,
0,0,0,0,0,0,0,112,0,0,116,0,0,0,0,0,0,0,0,0,0,0,0,0,0,0,0,0,0,0,0,0,0,0,0,0,0,0,0,0,0,117,0,0,0,0,0,0,0,0,0,0,0,0,0,0,0,0,0,0,0,0,0,0,
0,0,0,0,0,0,0,0,0,0,0,0,0,0,0,0,0,0,0,0,0,0,0,112,0,0,0,0,0,0,0,0,0,0,0,0,0,0,0,0,0,0,0,0,0,0,0,0,0,0,0,0,0,0,0,0,117,0,0,0,0,112,0,0,
0,0,0,0,116,0,0,0,0,0,0,0,118,0,0,0,0,0,0,0,0,0,0,0,0,0,0,116,0,0,0,0,0,0,0,0,0,0,0,111,0,0,0,0,0,111,0,0,0,0,0,0,0,0,0,0,0,0,0,0,0,0,0,0,
0,0,0,0,0,0,0,0,117,0,0,0,0,0,0,0,0,0,0,0,111,0,0,0,0,0,0,0,0,0,0,0,0,0,0,0,0,0,0,0,0,0,118,0,0,0,0,0,0,0,111,0,0,117,0,0,0,0,0,0,0,0,0,0,
0,118,0,0,0,0,0,0,0,0,0,0,0,0,0,0,111,0,0,0,0,0,0,0,111,0,0,0,0,0,0,0,0,0,0,0,0,0,0,0,0,0,0,0,0,0,0,0,0,0,0,0,0,0,0,0,0,0,0,118,0,0,0,0,
0,0,0,0,118,0,0,0,0,0,0,0,0,117,0,0,0,0,0,0,0,0,0,0,0,0,0,0,0,0,0,0,0,0,0,0,111,0,0,0,0,0,0,0,0,0,0,0,0,0,0,0,0,0,0,0,0,0,0,0,0,0,116,0,
0,0,0,0,0,0,0,0,0,0,0,0,0,0,0,0,0,0,0,0,0,117,0,0,0,0,118,0,0,0,0,0,0,0,0,0,0,0,0,0,112,0,0,116,0,0,0,0,111,0,0,0,0,0,115,0,0,0,0,0,0,0,0,0,
0,0,0,0,0,0,0,118,0,0,0,118,0,0,0,0,0,111,0,0,0,0,0,0,0,0,0,0,0,0,0,0,0,0,0,0,0,0,0,0,0,0,0,0,0,0,0,0,0,0,0,0,0,0,0,0,0,0,0,0,111,0,0,0,
0,0,0,0,0,0,0,0,0,0,0,0,0,0,0,0,0,0,0,0,0,0,0,112,0,0,0,0,0,0,0,0,0,0,0,0,117,0,0,0,0,0,0,0,0,0,0,0,0,0,117,0,0,0,0,0,0,0,0,0,0,0,0,0,
0,117,0,0,0,0,0,0,0,0,0,0,0,0,117,0,0,0,0,118,0,0,0,0,0,0,0,0,0,0,0,0,0,0,0,0,0,0,0,111,0,0,0,0,0,0,0,0,0,0,0,0,0,111,0,0,0,0,112,0,0,0,0,0,
0,0,0,0,0,0,0,0,0,0,0,0,0,0,0,0,0,0,0,0,0,0,0,0,0,0,0,0,0,0,0,0,0,0,0,0,0,0,0,0,0,0,0,0,0,0,0,0,117,0,0,0,0,0,0,0,0,0,0,0,0,0,0,0,
0,0,0,0,0,0,0,0,0,0,0,112,0,0,0,0,0,0,0,0,0,0,0,0,0,0,0,0,0,0,0,0,0,0,0,117,0,0,0,0,0,0,0,0,0,0,0,0,0,0,0,0,0,0,0,0,0,0,0,0,0,0,0,0,
0,0,0,115,0,0,111,0,0,0,0,0,0,0,0,0,0,0,0,117,0,0,117,0,0,0,0,0,0,0,0,0,0,0,0,0,0,0,0,0,117,0,0,0,0,0,0,0,0,0,0,0,115,0,0,112,0,0,0,0,0,0,0,0,
0,0,0,0,0,0,0,0,0,0,0,0,0,111,0,0,0,0,0,0,0,0,0,0,0,111,0,0,0,0,0,0,0,0,0,0,0,0,0,0,0,0,0,0,0,0,0,0,0,117,0,0,0,0,0,0,0,0,115,0,0,0,0,0,
0,0,0,0,0,0,0,0,0,0,0,0,0,0,0,0,116,0,0,0,0,0,0,0,0,0,0,0,0,0,0,0,0,0,111,0,0,0,0,0,0,0,117,0,0,118,0,0,0,0,0,0,0,0,0,0,0,0,0,0,0,116,0,0,
0,0,118,0,0,0,0,0,0,0,0,0,0,0,0,0,0,0,0,117,0,0,0,0,0,0,0,0,0,0,0,0,0,0,0,0,0,0,0,112,0,0,0,0,0,0,0,0,0,0,0,0,0,0,117,0,0,0,0,0,0,0,0,0,
0,0,0,0,0,118,0,0,117,0,0,0,0,0,0,0,0,0,0,0,0,0,117,0,0,0,0,0,0,0,0,0,0,0,0,0,0,0,0,0,0,0,0,0,0,0,0,0,0,0,111,0,0,0,0,0,0,0,0,0,0,0,0,0,
0,0,0,0,0,0,0,0,0,0,0,115,0,0,0,0,115,0,0,0,0,0,0,0,0,0,0,0,0,0,0,0,0,0,115,0,0,0,0,0,0,0,0,0,118,0,0,0,0,0,0,0,0,0,0,0,0,0,0,0,0,0,0,0,
0,116,0,0,0,0,0,0,0,0,0,0,0,0,0,0,0,0,0,0,0,0,0,0,0,0,0,0,0,0,0,0,0,0,0,0,0,0,0,0,0,0,0,0,0,0,0,116,0,0,0,0,116,0,0,0,0,0,0,0,0,0,0,0,
0,0,0,0,0,117,0,0,0,118,0,0,0,112,0,0,0,0,0,0,0,0,112,0,0,0,0,0,0,0,0,0,0,0,0,0,0,0,0,0,0,0,0,0,0,0,0,0,0,0,0,0,0,0,0,0,0,0,0,0,0,0,0,0,
0,0,0,0,0,0,0,0,0,0,0,0,0,0,0,0,0,0,0,0,0,0,0,0,0,0,0,0,0,0,0,0,0,0,0,0,117,0,0,0,0,0,112,0,0,112,0,0,0,0,0,0,0,0,0,0,0,0,0,0,0,0,0,0,
0,0,0,0,0,0,0,0,0,0,0,0,0,0,0,0,0,0,0,0,0,0,0,0,0,0,0,0,0,0,0,0,0,0,0,0,0,0,0,0,0,0,0,0,0,0,0,0,0,0,0,0,0,0,0,0,0,0,0,0,0,0,0,0,
0,0,0,0,0,0,0,0,0,0,0,0,0,0,0,0,0,0,0,0,0,0,116,0,0,0,0,0,0,0,0,0,0,0,116,0,0,0,0,0,0,0,0,0,0,0,0,0,0,0,0,0,0,0,0,0,0,0,0,0,0,0,0,0,
0,0,0,0,0,0,0,0,0,0,0,0,0,0,0,0,0,0,0,0,0,0,0,0,0,0,0,0,0,0,0,0,0,0,0,0,0,0,0,0,0,0,111,0,0,0,0,0,0,0,0,0,0,0,0,0,0,0,0,0,0,0,0,0,
0,0,0,0,0,0,0,0,0,0,0,0,0,0,0,0,0,0,0,0,0,0,0,0,0,0,0,0,0,0,0,0,0,0,0,0,0,116,0,0,0,0,0,0,0,0,0,0,0,0,0,0,0,0,0,0,0,0,0,0,0,0,0,0,
0,0,0,0,0,0,0,0,0,0,0,0,0,0,0,0,0,0,0,0,0,0,0,0,0,0,0,0,0,0,0,0,0,0,0,0,0,0,0,0,0,0,0,0,0,0,0,0,0,0,0,0,0,0,0,0,0,0,0,0,111,0,0,0,
0,0,0,0,0,0,0,0,0,0,0,0,0,0,0,0,0,0,0,0,0,0,0,0,0,0,0,0,0,0,0,0,0,0,0,0,0,0,0,0,0,0,0,0,0,0,0,0,0,0,0,0,0,0,0,0,0,0,0,0,0,0,0,0,
0,0,0,0,0,0,0,0,0,0,0,0,0,0,0,0,0,0,0,0,0,0,0,0,0,0,0,0,0,0,0,0,0,0,0,0,0,0,0,0,0,0,0,0,0,0,0,0,0,0,0,0,0,0,0,111,0,0,0,0,0,0,0,0,
0,0,0,0,0,0,0,0,118,0,0,0,0,0,118,0,0,0,0,0,0,0,0,0,0,0,0,0,0,0,0,0,0,0,0,0,0,0,0,0,0,0,0,0,0,0,0,0,0,0,0,0,0,0,0,0,0,0,0,0,112,0,0,0,
0,0,0,117,0,0,0,0,0,0,0,112,0,0,0,0,0,117,0,0,0,0,0,0,0,0,0,0,0,0,0,0,0,0,0,0,0,0,0,0,0,0,0,0,0,0,0,0,0,0,0,0,115,0,0,0,0,0,0,0,0,0,0,0,
0,0,0,0,0,0,0,0,0,0,0,0,0,0,0,0,0,0,0,0,0,0,0,0,0,0,0,0,0,0,0,0,0,0,0,0,0,0,0,0,0,0,0,0,0,0,0,0,0,0,0,0,0,0,0,0,0,0,115,0,0,0,0,0,
0,0,0,0,0,0,0,0,0,115,0,0,0,0,117,0,0,0,0,0,0,0,0,0,0,0,0,0,0,0,0,0,0,0,0,0,0,0,0,0,0,0,0,0,0,0,0,0,0,0,0,0,0,0,0,0,0,0,0,0,0,0,0,0,
0,0,0,0,0,0,0,0,0,0,0,0,0,0,0,0,0,0,0,111,0,0,0,0,0,0,0,0,0,0,0,0,0,0,0,0,0,0,0,0,0,0,0,0,0,0,0,0,0,0,0,0,0,0,0,115,0,0,0,0,118,0,0,0,
0,0,0,0,0,0,0,0,0,0,0,0,115,0,0,0,0,0,0,0,0,0,0,111,0,0,0,0,0,0,0,0,0,0,0,0,0,0,0,117,0,0,0,118,0,0,0,0,0,0,117,0,0,0,0,0,0,0,0,0,0,0,0,0,
0,0,0,0,0,0,117,0,0,0,0,0,0,0,0,118,0,0,0,0,0,0,0,0,0,0,0,0,0,0,0,0,0,0,0,0,0,0,0,0,0,0,0,0,0,0,0,0,0,0,0,0,0,111,0,0,0,0,117,0,0,0,0,0,
0,0,0,0,0,0,0,0,0,0,0,0,0,0,0,0,0,0,118,0,0,0,0,0,0,0,0,0,0,0,0,0,0,0,0,0,0,0,0,0,0,0,0,0,0,0,0,0,0,0,0,0,0,0,0,0,0,0,0,0,0,0,0,0,
0,0,0,112,0,0,0,0,0,0,0,0,115,0,0,0,0,0,0,0,0,0,111,0,0,0,0,0,0,0,0,0,0,0,0,0,0,0,0,0,0,0,0,0,0,0,0,0,0,0,0,0,0,0,0,0,0,0,0,0,0,118,0,0,
0,0,0,0,0,0,0,115,0,0,0,0,0,0,0,0,0,0,0,0,0,0,0,0,0,0,0,0,0,0,0,0,0,0,0,0,0,0,0,0,0,0,0,0,0,0,0,0,0,0,0,0,0,0,0,0,0,0,0,0,0,0,0,0,
0,112,0,0,0,0,0,0,0,0,0,0,0,0,0,0,0,118,0,0,0,0,0,0,0,0,0,0,0,0,0,0,0,0,0,0,0,0,0,0,0,0,0,0,0,0,0,0,0,0,0,0,0,0,0,0,0,0,0,0,0,0,0,0,
0,0,0,0,111,0,0,0,0,0,0,0,0,0,0,0,0,0,0,0,0,0,0,0,0,0,0,0,0,0,0,0,0,0,0,0,0,0,0,0,0,0,0,0,0,0,0,0,0,0,0,0,0,0,0,116,0,0,0,0,115,0,0,0,
0,0,0,0,0,0,0,118,0,0,0,0,112,0,0,0,0,0,0,0,0,116,0,0,0,0,0,0,0,0,0,0,0,0,0,0,0,0,0,0,0,0,0,0,0,0,0,0,0,0,0,0,0,0,0,0,0,0,0,0,0,0,0,0,
0,112,0,0,0,0,0,0,0,0,0,0,0,0,0,0,0,0,0,0,0,0,0,0,0,0,0,0,0,0,0,0,118,0,0,0,0,0,0,0,0,0,0,0,0,0,0,0,0,0,0,0,0,0,0,0,0,0,118,0,0,0,0,0,
0,0,0,0,0,0,0,0,0,111,0,0,0,0,0,0,0,0,0,0,0,0,0,0,0,0,0,0,0,0,0,0,0,0,0,0,0,0,0,0,0,0,0,0,0,0,0,0,0,0,0,0,0,0,0,0,0,0,0,0,0,0,0,0,
0,0,0,0,118,0,0,0,0,0,0,0,117,0,0,0,0,0,117,0,0,0,0,0,0,0,0,0,0,0,0,0,0,0,115,0,0,0,0,0,0,0,0,0,0,0,0,0,0,0,0,0,0,0,0,0,112,0,0,0,111,0,0,0,
0,0,0,0,0,0,0,117,0,0,0,0,0,0,0,0,0,0,0,0,0,0,0,0,0,0,0,0,0,0,0,118,0,0,0,0,0,0,0,0,0,0,0,0,0,0,0,0,0,0,0,0,0,0,0,0,0,0,0,0,0,0,0,0,
0,118,0,0,0,0,0,0,0,0,0,0,0,0,117,0,0,0,0,0,0,0,0,0,0,0,0,0,0,0,0,0,0,0,0,0,0,0,0,0,0,0,0,0,0,0,0,0,0,0,0,0,0,0,0,0,0,0,0,0,0,0,0,0,
0,0,0,0,0,0,0,0,0,0,0,0,0,0,0,0,0,118,0,0,0,0,0,0,0,0,0,0,0,0,0,0,0,0,0,0,116,0,0,0,0,0,0,0,0,0,0,0,0,0,0,0,0,0,0,0,0,0,0,112,0,0,116,0,
0,0,0,0,0,0,0,0,115,0,0,0,0,0,0,0,0,0,0,0,0,0,0,0,0,0,0,0,0,0,0,0,0,0,0,0,0,0,0,0,0,0,0,0,0,0,0,0,0,0,0,0,0,0,0,116,0,0,0,0,0,0,0,0,
0,0,0,0,117,0,0,0,0,0,0,118,0,0,0,0,0,0,0,0,0,0,0,0,0,0,0,0,0,112,0,0,0,0,0,0,0,0,111,0,0,0,0,0,0,0,0,0,0,0,0,0,0,0,0,0,0,0,0,0,0,0,0,0,
0,0,0,0,0,0,0,0,0,0,0,0,0,0,118,0,0,0,0,0,0,0,0,0,0,0,0,0,0,0,0,0,0,0,0,0,0,0,0,0,0,0,0,0,0,0,0,0,0,0,0,0,0,0,0,0,0,117,0,0,0,0,0,0,
0,0,116,0,0,0,0,0,0,0,0,0,0,0,0,0,0,0,0,0,0,0,0,0,0,0,0,0,0,0,0,111,0,0,0,115,0,0,0,0,0,0,0,0,0,0,0,0,0,0,0,0,0,0,0,0,0,0,0,0,0,0,0,0,
0,0,0,0,0,0,116,0,0,0,0,117,0,0,0,0,0,0,116,0,0,0,0,0,0,0,0,0,0,0,0,0,0,0,0,0,0,0,118,0,0,0,0,0,0,0,0,118,0,0,118,0,0,0,0,0,0,0,0,112,0,0,0,0,
0,0,0,0,0,0,0,0,0,0,0,0,0,0,116,0,0,0,0,0,0,0,0,0,0,0,0,0,117,0,0,0,0,116,0,0,0,0,0,0,0,0,0,0,0,0,0,0,0,0,0,0,0,116,0,0,116,0,0,0,0,0,0,0,
0,0,0,0,0,0,0,0,0,0,0,0,0,0,0,0,0,0,0,0,0,0,0,0,0,0,0,0,0,0,0,0,0,0,0,0,115,0,0,0,0,0,0,0,112,0,0,0,0,0,0,0,0,0,0,0,0,0,0,0,0,0,111,0,
0,0,0,0,0,0,0,0,0,111,0,0,0,0,0,0,117,0,0,0,0,0,0,0,0,0,0,0,0,0,0,112,0,0,0,0,0,0,0,0,0,0,0,0,0,0,0,0,0,117,0,0,0,0,0,0,0,0,0,0,0,0,0,0,
0,0,115,0,0,0,0,0,0,0,0,0,115,0,0,0,0,0,0,0,0,0,0,0,0,0,0,116,0,0,0,0,0,0,0,0,0,0,116,0,0,0,111,0,0,0,0,0,0,0,0,0,116,0,0,0,115,0,0,0,0,0,0,0,
0,0,0,0,0,0,0,0,0,0,0,0,0,0,0,0,0,0,0,0,0,0,0,0,0,0,0,0,0,0,0,0,0,115,0,0,0,0,0,0,0,0,0,0,0,118,0,0,0,0,0,0,0,0,0,0,0,0,0,0,118,0,0,0,
0,0,0,0,0,0,115,0,0,0,0,0,0,0,116,0,0,111,0,0,0,0,0,0,0,0,0,0,0,111,0,0,0,0,0,0,0,0,0,0,0,0,0,0,0,0,0,0,0,0,118,0,0,0,115,0,0,0,0,0,0,0,0,0,
0,0,0,0,0,0,0,0,0,0,0,0,0,0,0,0,0,0,0,0,0,0,0,0,0,0,0,0,0,0,0,0,0,0,0,111,0,0,0,0,0,0,118,0,0,0,0,0,0,0,0,0,0,0,0,0,0,112,0,0,0,0,0,0,
0,118,0,0,0,0,0,0,115,0,0,0,0,0,0,0,0,0,0,0,0,0,0,0,0,0,0,0,0,0,0,0,0,0,0,0,0,0,0,111,0,0,0,0,0,0,0,111,0,0,0,0,0,0,0,0,0,0,0,0,0,116,0,0,
0,0,0,0,0,0,0,0,0,0,0,0,0,0,0,0,0,0,112,0,0,0,0,0,0,0,0,0,0,0,0,0,0,112,0,0,0,0,0,0,0,0,0,0,0,0,0,0,0,0,118,0,0,0,0,0,0,0,0,0,0,0,0,0,
0,0,0,0,0,0,0,0,0,0,0,0,0,0,0,0,0,0,0,0,0,0,0,0,0,0,0,0,0,0,0,0,0,0,0,0,0,0,0,0,0,0,0,0,0,0,0,0,0,0,0,0,0,0,0,0,0,0,0,0,0,0,0,0
</data>
 </layer>
</map>
