<?xml version='1.0' encoding='UTF-8'?>
<map version="1.10" tiledversion="1.11.1" orientation="isometric" renderorder="right-down" width="64" height="64" tilewidth="64" tileheight="32" infinite="0" nextlayerid="5" nextobjectid="1">
 <properties>
  <property name="locationName" value="Forgotten Graveyard" />
 </properties>
 <tileset firstgid="1" source="background.tsx" />
 <tileset firstgid="31" source="mountin.tsx" />
 <tileset firstgid="63" source="items1.tsx" />
 <tileset firstgid="95" source="items2.tsx" />
 <tileset firstgid="111" source="trees1.tsx" />
 <tileset firstgid="115" source="trees2.tsx" />
 <layer id="1" name="Ground" width="64" height="64">
  <properties>
   <property name="worldRole" value="ground" />
   <property name="worldElevation" value="0.0" type="float" />
  </properties>
  <data encoding="csv">
3,3,2,3,2,5,2,3,3,3,3,2,5,3,5,3,2,2,3,2,2,5,2,3,9,9,9,9,6,6,6,8,8,9,3,3,3,5,5,2,3,2,2,2,3,3,5,6,8,8,8,8,6,8,8,6,9,8,8,6,9,8,5,5,
3,3,3,3,3,2,3,2,2,3,5,5,2,5,2,5,2,3,2,5,3,3,5,9,9,6,9,6,9,8,6,6,6,9,9,3,2,5,5,5,2,2,3,5,3,3,3,3,9,6,8,8,9,6,8,6,9,6,9,6,8,3,2,5,
2,3,5,5,3,2,2,5,3,5,2,3,3,2,3,5,3,2,2,2,2,5,6,8,6,9,8,8,8,8,8,8,9,8,6,9,8,3,2,5,5,5,3,2,2,3,5,9,8,9,6,9,8,8,9,9,6,8,6,6,8,3,3,2,
3,5,3,5,2,5,5,5,3,2,2,5,2,2,3,3,2,3,5,2,2,8,6,8,8,9,6,6,9,9,6,9,9,9,8,9,9,8,8,5,2,2,5,2,5,2,2,8,8,6,6,8,6,6,6,8,8,6,9,9,6,2,2,3,
5,2,3,3,2,2,3,2,3,3,3,5,5,2,3,3,5,2,2,3,9,8,9,9,9,8,6,9,9,9,8,6,6,9,9,8,9,8,6,6,9,2,3,5,3,9,8,8,6,9,9,9,6,9,6,9,8,9,6,8,6,8,3,5,
5,3,2,3,2,2,5,5,3,3,2,5,2,5,3,3,2,5,2,6,9,9,6,8,6,9,9,6,8,9,9,8,9,6,8,6,9,8,8,9,8,8,6,9,8,6,9,9,9,8,6,8,9,6,9,8,8,9,6,8,6,9,9,2,
5,5,3,2,3,3,3,2,2,2,2,5,3,3,5,3,2,5,9,9,8,6,6,8,8,9,6,8,8,8,8,9,9,8,8,6,9,6,9,9,6,6,14,14,8,9,9,9,8,9,8,6,6,8,8,8,6,8,9,9,8,9,6,6,
5,3,3,5,3,5,5,5,3,5,3,5,2,3,5,5,2,6,9,9,9,8,6,9,6,6,6,9,8,6,8,6,9,9,6,9,9,9,6,26,8,26,14,21,9,26,9,6,6,6,8,8,9,8,8,8,8,6,8,9,9,9,9,6,
9,5,5,2,2,2,5,3,2,5,2,2,2,5,5,8,8,6,9,9,6,6,9,6,6,6,6,8,6,17,16,19,16,17,17,19,9,30,26,6,17,21,19,23,17,30,26,6,8,6,9,8,9,8,6,9,6,8,6,6,6,8,9,9,
6,3,3,2,2,5,2,5,5,5,5,5,5,5,9,9,9,9,9,8,9,9,9,9,9,8,8,16,23,23,17,23,17,23,17,23,23,16,19,16,23,19,16,16,19,17,23,6,8,8,9,9,9,6,6,9,6,9,6,9,9,9,6,9,
6,9,2,2,5,5,2,5,3,2,5,3,3,8,8,9,9,8,8,6,8,6,8,6,8,9,21,23,19,17,23,19,21,23,19,17,17,17,16,17,19,19,8,14,21,23,16,19,8,9,9,8,6,8,8,6,6,8,9,9,6,6,6,9,
8,9,6,2,3,3,5,3,2,5,2,2,6,9,9,6,9,9,9,6,8,8,6,8,8,9,23,16,16,21,16,16,17,21,23,16,19,16,19,23,26,6,30,26,14,16,16,17,19,8,28,9,8,8,6,6,6,8,8,9,6,8,9,8,
6,6,8,3,2,5,3,2,5,3,3,8,9,6,8,9,9,9,9,8,8,8,9,6,6,6,17,23,16,19,21,16,17,17,23,19,19,19,21,9,14,6,8,9,8,28,21,16,16,23,26,30,8,9,8,6,9,9,6,6,8,6,6,8,
8,6,6,6,2,3,5,5,5,3,8,8,9,9,8,9,6,6,6,8,6,9,6,8,9,9,23,21,17,19,17,19,16,19,19,23,21,23,23,6,9,6,6,9,9,26,8,17,17,16,17,8,6,6,8,8,6,6,9,8,6,6,8,6,
8,9,8,8,2,2,5,3,3,9,6,8,8,8,9,6,8,6,6,9,9,8,6,9,9,9,16,21,23,23,17,21,23,23,16,16,23,19,16,8,6,8,9,9,8,6,8,28,19,21,23,19,9,8,8,8,8,6,8,6,6,9,6,8,
9,8,8,9,2,5,2,3,5,6,8,8,8,9,6,8,6,8,9,9,9,8,8,6,8,8,23,17,16,23,21,23,16,23,17,16,19,16,17,6,8,6,6,8,6,6,6,26,8,21,21,16,19,6,14,8,6,9,8,6,6,8,9,8,
9,9,9,9,2,2,5,3,2,9,6,8,6,9,6,8,9,8,9,9,8,6,8,8,9,8,23,21,17,23,19,19,23,21,17,23,23,16,16,6,6,9,6,9,8,8,8,8,8,9,28,23,21,16,28,9,8,9,8,9,9,8,8,9,
9,9,8,2,2,3,2,5,5,6,9,9,6,6,9,9,6,6,9,9,9,8,6,9,6,9,6,16,16,16,17,21,16,19,16,16,19,16,9,6,6,6,6,8,9,8,8,9,8,8,8,23,16,23,30,9,8,8,6,9,8,6,6,8,
9,6,5,5,3,5,3,3,2,3,8,9,6,9,6,8,6,8,6,9,9,6,6,9,6,9,6,9,6,16,17,16,19,16,19,23,9,9,9,6,9,5,5,2,3,5,3,2,8,6,28,17,19,16,8,8,9,9,8,9,8,6,6,6,
6,3,3,2,5,2,3,3,5,2,9,8,8,9,6,8,8,8,8,6,25,6,9,8,25,6,8,8,25,8,23,16,21,21,19,14,6,25,6,5,2,25,2,2,2,25,5,5,5,5,26,17,19,19,28,9,9,9,9,8,6,6,9,9,
5,2,3,3,3,3,2,2,2,3,2,6,8,6,6,9,8,9,6,9,25,8,8,6,25,8,8,6,25,9,17,16,21,23,17,30,9,25,5,3,2,25,2,3,2,25,5,2,2,2,14,17,21,21,9,9,8,9,9,9,6,9,9,9,
3,3,2,5,3,2,5,2,5,5,2,5,8,9,6,8,9,9,9,6,8,6,6,6,6,9,6,6,6,8,16,16,19,21,16,14,3,3,2,5,5,3,2,5,3,2,5,2,5,2,28,19,19,19,30,8,6,8,9,6,6,8,9,8,
3,5,5,5,2,3,3,3,5,2,5,3,9,9,9,8,9,6,6,8,6,6,6,9,6,9,6,6,6,28,19,19,17,17,21,14,2,2,5,2,5,2,3,2,5,2,2,2,2,2,26,30,19,21,30,6,6,6,6,6,6,9,6,6,
2,5,5,3,5,3,5,3,2,2,3,3,5,6,8,8,9,9,9,8,9,8,9,8,8,8,6,8,6,9,17,21,23,19,17,5,3,5,3,5,5,5,3,3,2,5,5,5,3,2,5,2,16,21,28,9,6,8,9,6,6,9,6,6,
2,5,2,2,2,5,3,2,5,2,2,5,3,8,8,6,8,8,9,9,25,8,8,6,6,6,6,9,25,26,23,19,16,17,17,26,5,25,2,2,3,25,5,2,5,25,2,2,5,2,14,28,16,16,28,30,8,6,9,6,6,8,9,8,
3,2,5,3,2,3,3,2,3,3,2,5,5,2,9,8,8,6,9,9,25,8,8,8,9,6,9,8,25,9,21,16,23,16,16,5,3,25,5,5,2,25,3,5,2,25,2,5,5,3,2,14,16,17,2,6,8,8,9,9,6,8,9,9,
2,5,2,2,5,5,5,3,3,5,5,3,5,5,9,6,9,9,6,9,9,8,6,6,9,6,6,6,9,14,17,17,19,19,23,30,5,2,5,3,2,2,3,5,2,5,5,2,5,5,26,30,16,17,26,8,6,9,9,6,8,9,9,8,
3,2,5,5,2,5,3,5,5,3,3,2,5,2,8,9,8,28,8,6,28,9,9,9,14,28,8,14,28,14,23,21,19,17,17,14,5,14,2,5,14,28,28,3,26,26,28,30,3,30,2,3,23,23,5,9,6,6,6,8,6,9,6,9,
2,5,5,5,2,3,3,5,3,5,2,5,3,5,9,14,26,16,19,21,23,16,21,23,23,16,21,19,16,19,21,21,21,19,23,19,17,21,21,19,23,21,19,23,17,21,19,17,17,2,5,2,16,21,16,8,9,9,9,9,6,6,8,8,
5,5,5,3,3,2,5,3,3,3,2,2,5,6,6,8,21,19,16,23,17,19,21,17,16,17,16,19,21,21,16,23,19,23,23,19,16,17,21,19,21,21,17,21,23,16,16,19,23,17,14,14,23,23,21,28,9,9,6,8,9,6,9,6,
5,3,3,2,5,5,5,3,2,2,5,3,6,9,9,6,6,17,19,21,23,23,21,17,23,19,21,21,16,21,16,16,23,17,21,23,19,19,17,16,16,17,17,19,23,16,19,21,23,30,14,30,21,16,19,28,8,9,9,9,8,8,9,8,
6,8,8,2,2,5,5,5,2,3,2,6,9,9,8,8,28,26,30,6,8,6,30,28,9,9,8,9,28,30,19,16,21,19,16,28,3,26,14,5,28,28,14,3,26,14,26,30,30,14,3,14,21,16,19,6,8,6,9,6,6,6,9,6,
8,9,9,8,9,8,9,9,6,8,9,8,6,6,8,6,6,9,8,6,8,6,6,6,8,6,9,9,8,6,21,16,19,21,23,28,2,5,3,2,2,5,2,3,5,2,5,2,2,2,3,26,23,23,23,26,9,8,6,8,9,8,9,6,
8,6,9,8,6,8,9,8,6,8,6,9,8,9,9,6,9,6,9,9,9,8,8,8,9,9,8,6,8,30,17,21,21,17,17,5,2,3,5,2,5,5,5,2,5,3,2,2,5,2,30,9,21,17,23,6,6,6,9,9,8,9,8,6,
9,9,8,8,9,8,6,8,6,9,6,9,8,9,8,9,8,6,9,8,9,9,9,6,8,9,9,9,6,30,23,19,16,16,17,3,3,3,2,3,5,5,5,5,2,5,3,2,3,8,26,17,23,16,28,8,8,9,9,8,9,8,8,6,
9,8,8,8,8,8,8,6,6,8,6,9,9,9,8,8,9,6,6,8,9,8,9,6,8,9,6,6,8,6,16,21,19,16,17,3,2,2,2,5,2,3,2,2,5,5,2,3,8,8,6,19,17,21,14,9,9,8,9,8,8,6,9,8,
8,6,6,9,6,9,9,6,6,6,6,8,9,9,8,6,9,9,8,9,25,6,9,9,25,9,6,6,25,28,21,23,16,16,23,3,2,25,2,2,2,5,3,3,3,25,5,8,8,28,19,17,17,30,26,6,6,8,9,8,6,8,6,9,
6,6,8,8,8,9,9,9,9,8,9,9,6,6,8,9,8,9,6,9,25,6,9,8,25,9,8,9,25,26,23,23,19,23,17,30,2,25,5,3,5,5,2,2,5,25,6,9,9,8,19,21,17,9,9,9,6,8,6,9,8,9,6,9,
9,9,9,8,6,9,6,9,8,8,9,8,8,9,8,8,9,8,9,8,9,9,9,9,8,9,8,8,9,6,23,17,19,23,23,6,5,5,2,2,2,5,3,5,6,8,6,14,9,19,21,16,30,14,6,9,9,9,8,8,9,8,8,9,
8,9,8,8,6,6,6,8,8,6,9,8,8,8,6,9,6,8,9,9,9,8,6,8,6,8,6,8,6,28,23,19,17,17,19,30,9,2,5,5,5,2,6,8,9,6,8,9,16,23,17,14,26,9,8,8,9,6,6,8,6,9,6,8,
9,8,8,9,9,6,8,9,8,9,8,8,8,6,6,8,8,9,6,6,8,6,8,8,6,8,8,9,6,26,17,17,21,23,23,9,9,6,9,6,8,8,9,8,8,8,26,6,21,19,17,26,6,6,6,8,9,8,9,8,8,8,6,8,
6,9,9,8,6,8,8,8,8,9,8,6,8,8,9,8,8,8,8,6,6,6,6,8,25,9,8,6,25,14,23,17,23,17,23,9,8,25,6,6,6,25,6,6,30,25,9,21,16,19,8,26,6,8,8,8,9,6,9,8,6,8,9,9,
9,9,8,8,6,9,8,9,6,6,9,9,8,8,9,9,8,9,9,6,9,8,6,9,25,6,9,8,25,16,21,21,21,19,17,16,9,25,9,6,30,25,30,30,6,25,21,17,16,23,26,8,8,6,8,9,6,6,9,8,9,6,9,8,
9,9,6,8,9,6,8,9,8,8,6,6,8,9,8,9,8,8,9,8,6,9,9,9,9,6,9,8,21,17,19,16,23,21,17,23,21,14,30,6,8,16,21,19,23,17,17,16,17,6,8,6,8,6,6,6,9,9,9,8,9,8,8,8,
6,6,8,6,9,6,9,8,6,9,6,8,6,8,6,9,8,8,9,8,8,6,6,6,9,8,6,9,17,21,16,17,21,21,23,21,17,19,19,19,23,19,19,16,17,17,21,17,9,14,6,6,9,6,9,8,8,6,6,9,8,8,6,6,
9,8,6,9,8,6,6,9,8,8,6,9,9,9,9,6,6,9,9,6,6,6,9,9,9,6,9,8,16,17,19,23,17,21,17,16,23,21,21,17,17,21,23,16,9,30,8,28,8,8,8,9,6,9,9,9,9,8,6,6,6,9,6,6,
8,6,8,6,9,8,9,9,9,8,6,6,9,8,8,6,6,6,9,6,6,8,8,8,8,9,8,9,19,21,23,17,19,17,16,17,17,21,19,9,9,8,30,28,28,9,9,9,6,8,8,9,6,9,6,6,8,9,6,8,9,8,6,9,
9,8,9,8,8,6,6,8,8,3,3,5,5,3,2,3,9,8,6,8,9,9,6,9,9,8,6,6,16,21,17,16,16,17,23,21,23,3,30,5,28,6,6,6,6,9,6,6,9,6,9,9,9,8,6,9,9,6,8,8,9,9,9,6,
8,6,8,6,9,8,2,2,5,2,2,2,2,2,3,3,5,2,9,8,9,6,9,8,9,6,6,6,6,17,16,17,19,17,23,16,3,5,2,3,5,5,8,9,8,8,9,6,8,8,9,9,8,8,8,8,8,9,9,9,6,9,9,9,
9,8,9,9,6,3,3,3,2,2,3,5,2,2,2,5,2,3,2,3,3,8,6,8,8,9,9,9,6,9,19,23,23,17,23,3,5,2,3,3,3,5,3,8,8,9,8,6,6,8,6,9,9,9,8,8,9,6,9,8,6,8,8,8,
9,6,6,9,5,3,3,3,2,3,3,2,2,3,5,5,2,3,3,3,5,3,5,9,8,6,6,9,8,8,17,23,19,17,16,28,3,5,2,3,2,5,3,5,6,6,6,6,8,6,9,8,8,6,9,9,9,6,6,6,6,6,9,9,
8,8,3,2,2,2,2,5,2,5,2,3,5,5,2,2,3,2,3,5,3,3,5,3,2,6,9,8,6,8,16,23,23,16,16,30,5,3,5,5,2,5,2,3,3,9,9,9,8,6,6,8,6,9,8,6,9,6,9,9,6,8,6,8,
9,8,2,3,5,5,2,5,3,3,5,5,5,2,5,3,3,3,2,3,2,2,2,2,3,5,9,6,9,14,17,19,23,23,16,3,2,2,2,5,3,5,5,2,3,2,8,9,6,8,8,8,9,8,8,6,8,9,6,9,6,8,9,6,
6,3,5,2,5,2,2,3,5,5,5,3,5,5,3,3,5,5,3,3,5,5,5,2,3,3,3,2,2,14,21,21,16,23,16,28,2,3,2,2,3,3,2,3,2,5,8,6,9,6,6,6,8,9,6,9,9,9,9,8,6,9,6,9,
2,2,3,3,2,2,5,3,3,5,3,5,5,5,3,3,5,3,3,5,5,5,3,5,3,3,5,8,8,28,16,19,19,19,16,30,5,2,3,2,5,5,3,5,5,5,2,9,9,9,6,9,6,9,8,8,6,9,6,6,9,8,9,5,
2,3,5,3,2,2,2,3,2,3,2,5,5,5,5,5,3,3,2,5,5,2,5,5,5,6,8,6,8,14,21,16,23,16,23,14,5,2,3,2,5,2,5,2,3,3,2,9,8,6,6,9,8,9,6,8,6,6,6,8,9,8,9,2,
5,3,2,3,3,3,3,3,5,3,5,3,5,3,3,5,2,5,3,2,5,2,2,3,9,8,6,9,6,26,23,23,16,21,21,30,3,5,3,3,5,3,5,5,2,2,3,8,6,8,9,9,8,6,9,8,9,9,8,9,9,8,3,5,
3,5,3,3,3,3,2,2,5,3,5,3,5,3,3,3,5,5,5,5,2,5,5,9,8,8,8,9,9,30,21,23,17,17,17,30,3,5,2,3,2,5,3,2,5,2,9,8,9,9,9,8,9,9,6,6,6,6,9,9,8,9,3,2,
2,2,2,5,3,3,5,5,5,5,2,2,3,2,3,5,5,3,2,5,2,2,9,8,6,9,8,9,8,9,16,16,16,16,21,30,8,9,3,5,2,3,3,2,5,8,9,8,6,8,8,8,6,9,8,8,8,6,9,6,8,6,6,2,
2,5,5,5,3,3,2,5,3,5,3,5,2,5,2,2,5,5,2,3,8,6,8,8,8,8,6,8,8,26,16,16,23,17,16,30,9,8,9,9,8,6,9,9,8,6,9,8,8,8,6,8,6,6,9,9,8,6,8,6,9,9,8,3,
2,5,3,3,5,3,3,2,2,2,5,2,3,5,3,3,2,3,5,8,6,6,6,9,8,6,9,6,8,8,19,21,16,21,21,26,8,6,6,8,6,9,9,9,8,9,6,9,6,8,8,6,8,8,8,6,8,8,6,6,6,6,6,8,
6,3,5,3,3,5,3,2,2,3,2,3,2,5,3,5,2,5,8,9,9,8,8,6,6,6,6,6,9,28,21,19,17,23,17,8,6,8,8,9,9,8,8,8,8,9,6,9,8,6,8,6,8,8,6,9,8,9,8,8,6,6,6,8,
8,5,3,3,5,2,3,2,2,3,5,3,3,3,2,2,3,9,8,9,8,6,6,6,8,9,9,8,8,6,21,16,19,16,19,9,6,8,8,8,6,9,9,8,9,6,9,6,9,8,9,6,6,8,9,6,9,9,6,9,9,6,9,8,
9,8,3,3,3,2,3,5,2,5,3,5,3,3,3,5,8,6,8,9,9,6,9,8,6,8,6,9,6,28,21,21,16,16,19,14,8,6,6,6,9,9,6,8,6,8,8,8,9,6,9,6,6,9,8,6,8,6,6,8,8,8,8,6
</data>
 </layer>
 <layer id="2" name="Cliffs and obstacles" width="64" height="64">
  <properties>
   <property name="worldRole" value="cutout" />
   <property name="worldSolid" value="true" type="bool" />
  </properties>
  <data encoding="csv">
0,0,0,0,0,0,0,0,0,0,0,0,0,0,0,0,0,0,0,0,0,0,0,0,0,0,0,0,0,0,0,0,0,0,0,0,0,0,0,0,0,0,0,0,0,0,0,0,0,0,0,0,0,0,0,0,0,0,0,0,0,0,0,0,
0,0,0,0,0,0,0,0,0,0,0,0,0,0,0,0,0,0,0,0,0,0,0,0,0,0,0,0,0,0,0,0,0,0,0,0,0,0,0,0,0,0,0,0,0,0,0,0,0,0,0,0,0,0,0,0,0,0,0,0,0,0,0,0,
0,0,0,0,0,0,0,0,0,0,0,0,0,0,0,0,0,0,0,0,0,0,0,0,0,0,0,0,0,0,0,0,0,0,0,0,0,0,0,0,0,0,0,0,0,0,0,0,0,0,0,0,0,0,0,0,0,0,0,0,0,0,0,0,
0,0,0,0,0,0,0,0,0,0,0,0,0,0,0,0,0,0,0,0,0,0,0,0,0,0,0,0,0,0,0,0,0,0,0,0,0,0,0,0,0,0,0,0,0,0,0,0,0,0,0,0,0,0,0,0,0,0,0,0,0,0,0,0,
0,0,0,0,0,0,0,0,0,0,0,0,0,0,0,0,0,0,0,0,0,0,0,0,0,0,0,0,0,0,0,0,0,0,0,0,0,0,0,0,0,0,0,0,0,0,0,0,0,0,0,0,0,0,0,0,0,0,0,0,0,0,0,0,
0,0,0,0,0,0,0,0,0,0,0,0,0,0,0,0,0,0,0,0,0,0,0,0,0,0,0,0,0,0,0,0,0,0,0,0,0,0,0,0,0,0,0,0,0,0,0,0,0,0,0,0,0,0,0,0,0,0,0,0,0,0,0,0,
0,0,0,0,0,0,0,0,0,0,0,0,0,0,0,0,0,0,0,0,0,0,0,0,0,0,0,0,0,0,0,0,0,0,0,0,0,0,0,0,0,0,0,0,0,0,0,0,0,0,0,0,0,0,0,0,0,0,0,0,0,0,0,0,
0,0,0,0,0,0,0,0,0,0,0,0,0,0,0,0,0,0,0,0,0,0,0,0,0,0,0,0,0,0,0,0,0,0,0,0,0,0,0,0,0,0,0,0,0,0,0,0,0,0,0,0,0,0,0,0,0,0,0,0,0,0,0,0,
0,0,0,0,0,0,0,0,0,0,0,0,0,0,0,0,0,0,0,0,0,0,0,0,0,0,0,0,0,0,0,0,0,0,0,0,0,0,0,0,0,0,0,0,0,0,0,0,0,0,0,0,0,0,0,0,0,0,0,0,0,0,0,0,
0,0,0,0,0,0,0,0,0,0,0,0,0,0,0,0,0,0,0,0,0,0,0,0,0,0,0,0,0,0,0,0,0,0,0,0,0,0,0,0,0,0,0,0,0,0,0,0,0,0,0,0,0,0,0,0,0,0,0,0,0,0,0,0,
0,0,0,0,0,0,0,0,0,0,0,0,0,0,0,0,73,73,73,73,73,73,73,73,73,73,73,73,0,99,0,0,109,0,0,100,0,73,73,73,73,73,73,73,73,73,73,73,73,73,0,0,0,0,0,0,0,0,0,0,0,0,0,0,
0,0,0,0,0,0,0,0,0,0,0,0,0,0,0,0,71,0,0,0,0,0,0,0,0,0,0,0,0,0,0,0,0,0,0,0,0,0,0,0,0,0,0,0,0,0,0,0,0,71,0,0,0,0,0,0,0,0,0,0,0,0,0,0,
0,0,0,0,0,0,0,0,0,0,0,0,0,0,0,0,71,0,0,0,0,0,0,0,0,0,0,0,0,0,0,0,0,0,0,0,0,0,0,0,0,0,0,0,0,0,0,0,0,71,0,0,0,0,0,0,0,0,0,0,0,0,0,0,
0,0,0,0,0,0,0,0,0,0,0,0,0,0,0,0,71,0,0,0,0,0,0,0,0,0,0,107,0,0,0,0,0,0,0,0,0,108,0,0,0,0,0,0,0,0,0,0,0,71,0,0,0,0,0,0,0,0,0,0,0,0,0,0,
0,0,0,0,0,0,0,0,0,0,0,0,0,0,0,0,71,0,0,0,0,0,0,0,0,0,0,0,0,0,0,0,0,0,0,0,0,0,0,0,0,0,0,0,0,0,0,0,0,71,0,0,0,0,0,0,0,0,0,0,0,0,0,0,
0,0,0,0,0,0,0,0,0,0,0,0,0,0,0,0,71,0,0,0,0,0,0,0,0,0,0,0,0,0,0,0,0,0,0,0,0,0,0,0,0,0,0,0,0,0,0,0,0,71,0,0,0,0,0,0,0,0,0,0,0,0,0,0,
0,0,0,0,0,0,0,0,0,0,0,0,0,0,0,0,71,0,0,0,0,0,0,0,0,0,0,0,0,0,0,0,0,0,0,0,0,0,0,0,0,0,0,0,0,0,0,0,0,71,0,0,0,0,0,0,0,0,0,0,0,0,0,0,
0,0,0,0,0,0,0,0,0,0,0,0,0,0,0,0,71,0,0,0,0,0,0,0,0,0,0,0,0,0,0,0,0,0,0,0,0,0,0,0,0,0,0,0,0,0,0,0,0,71,0,0,0,0,0,0,0,0,0,0,0,0,0,0,
0,0,0,0,0,0,0,0,0,0,0,0,0,0,0,0,71,0,0,0,108,0,0,0,108,0,0,0,107,0,0,0,0,0,0,0,0,108,0,0,0,109,0,0,0,109,0,0,0,71,0,0,0,0,0,0,0,0,0,0,0,0,0,0,
0,0,0,0,0,0,0,0,0,0,0,0,0,0,0,0,71,0,0,0,0,0,0,0,0,0,0,0,0,0,0,0,0,0,0,0,0,0,0,0,0,0,0,0,0,0,0,0,0,71,0,0,0,0,0,0,0,0,0,0,0,0,0,0,
0,0,0,0,0,0,0,0,0,0,0,0,0,0,0,0,0,0,0,0,0,0,0,0,0,0,0,0,0,0,0,0,0,0,0,0,0,0,0,0,0,0,0,0,0,0,0,0,0,0,0,0,0,0,0,0,0,0,0,0,0,0,0,0,
0,0,0,0,0,0,0,0,0,0,0,0,0,0,0,0,0,0,0,0,0,0,0,0,0,0,0,0,0,0,0,0,0,0,0,0,0,0,0,0,0,0,0,0,0,0,0,0,0,0,0,0,0,0,0,0,0,0,0,0,0,0,0,0,
0,0,0,0,0,0,0,0,0,0,0,0,0,0,0,0,71,0,0,0,0,0,0,0,0,0,0,0,0,0,0,0,0,0,0,0,0,0,0,0,0,0,0,0,0,0,0,0,0,71,0,0,0,0,0,0,0,0,0,0,0,0,0,0,
0,0,0,0,0,0,0,0,0,0,0,0,0,0,0,0,71,0,0,0,110,0,0,0,0,0,0,0,107,0,0,0,0,0,0,0,0,107,0,0,0,108,0,0,0,109,0,0,0,71,0,0,0,0,0,0,0,0,0,0,0,0,0,0,
0,0,0,0,0,0,0,0,0,0,0,0,0,0,0,0,71,0,0,0,0,0,0,0,0,0,0,0,0,0,0,0,0,0,0,0,0,0,0,0,0,0,0,0,0,0,0,0,0,71,0,0,0,0,0,0,0,0,0,0,0,0,0,0,
0,0,0,0,0,0,0,0,0,0,0,0,0,0,0,0,71,0,0,0,0,0,0,0,0,0,0,0,0,0,0,0,0,0,0,0,0,0,0,0,0,0,0,0,0,0,0,0,0,71,0,0,0,0,0,0,0,0,0,0,0,0,0,0,
0,0,0,0,0,0,0,0,0,0,0,0,0,0,0,0,71,0,0,0,0,0,0,0,0,0,0,0,0,0,0,0,0,0,0,0,0,0,0,0,0,0,0,0,0,0,0,0,0,71,0,0,0,0,0,0,0,0,0,0,0,0,0,0,
0,0,0,0,0,0,0,0,0,0,0,0,0,0,0,0,71,0,0,0,0,0,0,0,0,0,0,0,0,0,0,0,0,0,0,0,0,0,0,0,0,0,0,0,0,0,0,0,0,71,0,0,0,0,0,0,0,0,0,0,0,0,0,0,
0,0,0,0,0,0,0,0,0,0,0,0,0,0,0,0,0,0,0,0,0,0,0,0,0,0,0,0,0,0,0,0,0,0,0,0,0,0,0,0,0,0,0,0,0,0,0,0,0,0,0,0,0,0,0,0,0,0,0,0,0,0,0,0,
0,0,0,0,0,0,0,0,0,0,0,0,0,0,0,0,0,0,0,0,0,0,0,0,0,0,0,0,0,0,0,0,0,0,0,0,0,0,0,0,0,0,0,0,0,0,0,0,0,0,0,0,0,0,0,0,0,0,0,0,0,0,0,0,
0,0,0,0,0,0,0,0,0,0,0,0,0,0,0,0,0,0,0,0,0,0,0,0,0,0,0,0,0,0,0,0,0,0,0,0,0,0,0,0,0,0,0,0,0,0,0,0,0,0,0,0,0,0,0,0,0,0,0,0,0,0,0,0,
0,0,0,0,0,0,0,0,0,0,0,0,0,0,0,0,71,0,0,0,0,0,0,0,0,0,0,0,0,0,0,0,0,0,0,0,0,0,0,0,0,0,0,0,0,0,0,0,0,71,0,0,0,0,0,0,0,0,0,0,0,0,0,0,
0,0,0,0,0,0,0,0,0,0,0,0,0,0,0,0,71,0,0,0,0,0,0,0,0,0,0,0,0,0,0,0,0,0,0,0,0,0,0,0,0,0,0,0,0,0,0,0,0,71,0,0,0,0,0,0,0,0,0,0,0,0,0,0,
0,0,0,0,0,0,0,0,0,0,0,0,0,0,0,0,71,0,0,0,0,0,0,0,0,0,0,0,0,0,0,0,0,0,0,0,0,0,0,0,0,0,0,0,0,0,0,0,0,71,0,0,0,0,0,0,0,0,0,0,0,0,0,0,
0,0,0,0,0,0,0,0,0,0,0,0,0,0,0,0,71,0,0,0,0,0,0,0,0,0,0,0,0,0,0,0,0,0,0,0,0,0,0,0,0,0,0,0,0,0,0,0,0,71,0,0,0,0,0,0,0,0,0,0,0,0,0,0,
0,0,0,0,0,0,0,0,0,0,0,0,0,0,0,0,71,0,0,0,109,0,0,0,108,0,0,0,110,0,0,0,0,0,0,0,0,107,0,0,0,0,0,0,0,108,0,0,0,71,0,0,0,0,0,0,0,0,0,0,0,0,0,0,
0,0,0,0,0,0,0,0,0,0,0,0,0,0,0,0,71,0,0,0,0,0,0,0,0,0,0,0,0,0,0,0,0,0,0,0,0,0,0,0,0,0,0,0,0,0,0,0,0,71,0,0,0,0,0,0,0,0,0,0,0,0,0,0,
0,0,0,0,0,0,0,0,0,0,0,0,0,0,0,0,71,0,0,0,0,0,0,0,0,0,0,0,0,0,0,0,0,0,0,0,0,0,0,0,0,0,0,0,0,0,0,0,0,71,0,0,0,0,0,0,0,0,0,0,0,0,0,0,
0,0,0,0,0,0,0,0,0,0,0,0,0,0,0,0,0,0,0,0,0,0,0,0,0,0,0,0,0,0,0,0,0,0,0,0,0,0,0,0,0,0,0,0,0,0,0,0,0,0,0,0,0,0,0,0,0,0,0,0,0,0,0,0,
0,0,0,0,0,0,0,0,0,0,0,0,0,0,0,0,0,0,0,0,0,0,0,0,0,0,0,0,0,0,0,0,0,0,0,0,0,0,0,0,0,0,0,0,0,0,0,0,0,0,0,0,0,0,0,0,0,0,0,0,0,0,0,0,
0,0,0,0,0,0,0,0,0,0,0,0,0,0,0,0,71,0,0,0,0,0,0,0,108,0,0,0,107,0,0,0,0,0,0,0,0,108,0,0,0,108,0,0,0,110,0,0,0,71,0,0,0,0,0,0,0,0,0,0,0,0,0,0,
0,0,0,0,0,0,0,0,0,0,0,0,0,0,0,0,71,0,0,0,0,0,0,0,0,0,0,0,0,0,0,0,0,0,0,0,0,0,0,0,0,0,0,0,0,0,0,0,0,71,0,0,0,0,0,0,0,0,0,0,0,0,0,0,
0,0,0,0,0,0,0,0,0,0,0,0,0,0,0,0,71,0,0,0,0,0,0,0,0,0,0,0,0,0,0,0,0,0,0,0,0,0,0,0,0,0,0,0,0,0,0,0,0,71,0,0,0,0,0,0,0,0,0,0,0,0,0,0,
0,0,0,0,0,0,0,0,0,0,0,0,0,0,0,0,71,0,0,0,0,0,0,0,0,0,0,0,0,0,0,0,0,0,0,0,0,0,0,0,0,0,0,0,0,0,0,0,0,71,0,0,0,0,0,0,0,0,0,0,0,0,0,0,
0,0,0,0,0,0,0,0,0,0,0,0,0,0,0,0,71,0,0,0,0,0,0,0,0,0,0,0,0,0,0,0,0,0,0,0,0,0,0,0,0,0,0,0,0,0,0,0,0,71,0,0,0,0,0,0,0,0,0,0,0,0,0,0,
0,0,0,0,0,0,0,0,0,0,0,0,0,0,0,0,71,0,0,0,0,0,0,0,0,0,0,0,0,0,0,0,0,0,0,0,0,0,0,0,0,0,0,0,0,0,0,0,0,71,0,0,0,0,0,0,0,0,0,0,0,0,0,0,
0,0,0,0,0,0,0,0,0,0,0,0,0,0,0,0,73,73,73,73,73,0,0,73,73,73,73,73,73,101,0,0,0,0,0,102,73,73,73,73,73,73,73,73,0,73,73,73,73,73,0,0,0,0,0,0,0,0,0,0,0,0,0,0,
0,0,0,0,0,0,0,0,0,0,0,0,0,0,0,0,0,0,0,0,0,0,0,0,0,0,0,0,0,0,0,0,0,0,0,0,0,0,0,0,0,0,0,0,0,0,0,0,0,0,0,0,0,0,0,0,0,0,0,0,0,0,0,0,
0,0,0,0,0,0,0,0,0,0,0,0,0,0,0,0,0,0,0,0,0,0,0,0,0,0,0,0,0,0,0,0,0,0,0,0,0,0,0,0,0,0,0,0,0,0,0,0,0,0,0,0,0,0,0,0,0,0,0,0,0,0,0,0,
0,0,0,0,0,0,0,0,0,0,0,0,0,0,0,0,0,0,0,0,0,0,0,0,0,0,0,0,0,0,0,0,0,0,0,0,0,0,0,0,0,0,0,0,0,0,0,0,0,0,0,0,0,0,0,0,0,0,0,0,0,0,0,0,
0,0,0,0,0,0,0,0,0,0,0,0,0,0,0,0,0,0,0,0,0,0,0,0,0,0,0,0,0,0,0,0,0,0,0,0,0,0,0,0,0,0,0,0,0,0,0,0,0,0,0,0,0,0,0,0,0,0,0,0,0,0,0,0,
0,0,0,0,0,0,0,0,0,0,0,0,0,0,0,0,0,0,0,0,0,0,0,0,0,0,0,0,0,0,0,0,0,0,0,0,0,0,0,0,0,0,0,0,0,0,0,0,0,0,0,0,0,0,0,0,0,0,0,0,0,0,0,0,
0,0,0,0,0,0,0,0,0,0,0,0,0,0,0,0,0,0,0,0,0,0,0,0,0,0,0,0,0,0,0,0,0,0,0,0,0,0,0,0,0,0,0,0,0,0,0,0,0,0,0,0,0,0,0,0,0,0,0,0,0,0,0,0,
0,0,0,0,0,0,0,0,0,0,0,0,0,0,0,0,0,0,0,0,0,0,0,0,0,0,0,0,0,0,0,0,0,0,0,0,0,0,0,0,0,0,0,0,0,0,0,0,0,0,0,0,0,0,0,0,0,0,0,0,0,0,0,0,
0,0,0,0,0,0,0,0,0,0,0,0,0,0,0,0,0,0,0,0,0,0,0,0,0,0,0,0,0,0,0,0,0,0,0,0,0,0,0,0,0,0,0,0,0,0,0,0,0,0,0,0,0,0,0,0,0,0,0,0,0,0,0,0,
0,0,0,0,0,0,0,0,0,0,0,0,0,0,0,0,0,0,0,0,0,0,0,0,0,0,0,0,0,0,0,0,0,0,0,0,0,0,0,0,0,0,0,0,0,0,0,0,0,0,0,0,0,0,0,0,0,0,0,0,0,0,0,0,
0,0,0,0,0,0,0,0,0,0,0,0,0,0,0,0,0,0,0,0,0,0,0,0,0,0,0,0,0,0,0,0,0,0,0,0,0,0,0,0,0,0,0,0,0,0,0,0,0,0,0,0,0,0,0,0,0,0,0,0,0,0,0,0,
0,0,0,0,0,0,0,0,0,0,0,0,0,0,0,0,0,0,0,0,0,0,0,0,0,0,0,0,0,0,0,0,0,0,0,0,0,0,0,0,0,0,0,0,0,0,0,0,0,0,0,0,0,0,0,0,0,0,0,0,0,0,0,0,
0,0,0,0,0,0,0,0,0,0,0,0,0,0,0,0,0,0,0,0,0,0,0,0,0,0,0,0,0,0,0,0,0,0,0,0,0,0,0,0,0,0,0,0,0,0,0,0,0,0,0,0,0,0,0,0,0,0,0,0,0,0,0,0,
0,0,0,0,0,0,0,0,0,0,0,0,0,0,0,0,0,0,0,0,0,0,0,0,0,0,0,0,0,0,0,0,0,0,0,0,0,0,0,0,0,0,0,0,0,0,0,0,0,0,0,0,0,0,0,0,0,0,0,0,0,0,0,0,
0,0,0,0,0,0,0,0,0,0,0,0,0,0,0,0,0,0,0,0,0,0,0,0,0,0,0,0,0,0,0,0,0,0,0,0,0,0,0,0,0,0,0,0,0,0,0,0,0,0,0,0,0,0,0,0,0,0,0,0,0,0,0,0,
0,0,0,0,0,0,0,0,0,0,0,0,0,0,0,0,0,0,0,0,0,0,0,0,0,0,0,0,0,0,0,0,0,0,0,0,0,0,0,0,0,0,0,0,0,0,0,0,0,0,0,0,0,0,0,0,0,0,0,0,0,0,0,0,
0,0,0,0,0,0,0,0,0,0,0,0,0,0,0,0,0,0,0,0,0,0,0,0,0,0,0,0,0,0,0,0,0,0,0,0,0,0,0,0,0,0,0,0,0,0,0,0,0,0,0,0,0,0,0,0,0,0,0,0,0,0,0,0,
0,0,0,0,0,0,0,0,0,0,0,0,0,0,0,0,0,0,0,0,0,0,0,0,0,0,0,0,0,0,0,0,0,0,0,0,0,0,0,0,0,0,0,0,0,0,0,0,0,0,0,0,0,0,0,0,0,0,0,0,0,0,0,0
</data>
 </layer>
 <layer id="3" name="Scattered details" width="64" height="64">
  <properties>
   <property name="worldRole" value="cutout" />
  </properties>
  <data encoding="csv">
0,0,0,0,0,0,0,0,0,0,0,0,0,0,0,0,0,0,0,0,0,0,0,0,0,0,0,0,0,0,0,0,0,0,0,0,0,0,0,0,0,0,0,0,0,0,0,0,0,0,0,0,0,0,0,0,0,0,0,0,0,0,0,0,
0,0,0,0,0,0,0,0,0,0,0,0,0,0,0,94,98,0,0,0,0,0,0,98,0,0,0,0,0,0,79,0,0,0,0,0,0,0,0,0,92,0,0,98,0,0,0,0,0,0,0,0,0,0,0,0,0,0,0,0,0,0,0,0,
0,80,0,0,0,88,0,0,0,90,93,0,0,0,84,0,90,0,0,0,0,0,0,0,0,0,0,0,0,0,0,0,0,0,0,0,0,80,0,0,0,94,0,0,0,0,0,0,0,0,0,0,0,0,80,0,0,0,103,0,0,0,0,0,
0,0,0,0,0,0,0,0,0,0,0,0,79,0,0,0,0,0,0,0,0,0,79,0,0,0,0,0,0,0,0,0,0,0,0,0,103,0,0,0,0,0,0,0,0,84,0,0,0,90,0,0,0,83,0,0,0,0,0,0,95,0,95,0,
0,0,0,0,0,0,0,0,0,0,93,0,0,95,0,0,0,0,0,0,0,0,0,0,0,0,0,0,0,0,0,0,0,0,0,0,90,0,90,94,0,0,0,0,0,0,0,0,0,0,79,0,0,0,0,0,103,0,0,0,0,0,0,0,
0,84,0,0,0,0,0,0,0,0,90,0,92,103,0,0,0,0,88,0,0,0,0,0,0,0,98,0,0,90,0,0,98,0,0,0,0,0,0,0,0,0,0,0,0,0,0,88,0,90,93,0,0,0,0,0,0,0,0,0,0,0,0,0,
0,0,0,0,0,0,0,0,0,0,0,0,0,0,0,0,0,0,0,0,0,0,93,0,0,93,83,94,0,0,0,0,0,0,0,0,0,0,0,0,0,0,0,0,0,0,0,0,0,0,0,0,0,0,0,0,0,0,0,0,0,103,0,0,
0,0,0,0,0,0,0,0,0,0,0,0,0,0,0,0,0,0,0,0,0,0,0,0,0,0,0,0,0,0,0,0,0,0,0,0,0,0,0,0,0,0,0,0,0,0,0,0,0,0,0,0,0,0,0,0,0,0,0,0,94,0,0,0,
0,0,88,0,0,0,0,90,79,0,0,0,0,0,0,0,0,0,0,0,0,0,0,0,0,0,0,0,0,0,0,0,0,0,0,0,0,0,0,0,0,0,0,0,0,0,0,0,0,0,0,0,0,0,0,0,0,92,0,0,0,0,80,0,
0,0,0,0,0,0,0,0,0,0,0,0,0,0,0,0,0,0,0,0,0,0,0,0,0,0,0,0,0,0,0,0,0,0,0,0,0,0,0,0,0,0,0,0,0,0,0,0,0,0,0,0,0,0,0,0,0,0,0,0,0,0,0,0,
0,0,0,0,0,0,79,0,95,0,0,0,0,79,0,0,0,0,0,0,0,0,0,0,0,0,0,0,0,0,0,0,0,0,0,0,0,0,0,0,0,0,0,0,0,0,0,0,0,0,0,0,0,0,0,0,0,0,0,79,0,0,0,0,
0,0,0,0,0,0,0,0,0,0,0,0,0,0,0,0,0,0,0,0,0,0,0,0,0,0,0,0,0,0,0,0,0,0,0,0,0,0,0,0,0,0,0,0,0,0,0,0,0,0,0,0,0,0,0,0,0,0,0,0,98,0,0,0,
0,80,0,0,0,0,90,0,0,0,0,0,0,0,0,0,0,0,0,0,0,0,0,0,0,0,0,0,0,0,0,0,0,0,0,0,0,0,0,0,0,0,0,0,0,0,0,0,0,0,0,0,0,0,84,0,0,0,0,0,0,0,0,0,
0,0,0,0,0,92,0,0,0,0,0,0,0,0,0,0,0,0,0,0,0,0,0,0,0,0,0,0,0,0,0,0,0,0,0,0,0,0,0,0,0,0,0,0,0,0,0,0,0,0,0,0,0,0,0,0,0,92,90,0,0,0,0,0,
0,0,0,0,0,0,0,0,0,0,0,0,0,0,0,0,0,0,0,0,0,0,0,0,0,0,0,0,0,0,0,0,0,0,0,0,0,0,0,0,0,0,0,0,0,0,0,0,0,0,0,0,0,0,0,0,0,0,0,93,0,0,0,0,
0,0,0,0,0,0,0,0,0,0,0,0,98,0,0,0,0,0,94,0,0,0,0,0,0,0,0,0,0,0,0,0,0,0,0,0,0,0,0,0,0,0,0,0,0,0,0,0,0,0,0,0,0,0,0,0,0,0,0,0,80,0,0,0,
0,0,0,0,0,0,0,0,0,0,0,0,0,0,0,0,0,0,0,0,0,0,0,0,0,0,0,0,0,0,0,0,0,0,0,0,0,0,0,0,0,0,0,0,0,0,94,0,0,0,0,0,0,0,0,0,0,0,0,0,0,0,0,0,
0,0,80,0,0,0,0,0,0,0,0,0,88,0,0,0,0,0,0,0,0,0,0,0,0,0,0,0,0,0,0,0,0,0,0,0,0,0,0,0,0,0,0,0,0,0,0,0,0,0,0,0,0,0,0,0,0,0,0,0,0,0,0,0,
0,0,0,0,0,0,0,0,0,0,103,0,0,0,0,0,0,0,0,0,0,0,0,0,0,0,0,0,0,0,0,0,0,0,0,0,0,0,0,0,0,0,0,0,0,0,0,0,0,0,0,0,0,0,0,0,0,0,0,0,88,94,0,0,
0,0,0,0,0,0,92,0,0,0,0,0,0,0,0,0,0,0,0,0,0,0,0,0,0,0,0,0,0,0,0,0,0,0,0,0,0,0,0,0,0,0,0,0,0,0,88,0,0,0,0,0,0,0,0,0,0,0,0,0,0,0,0,0,
0,0,0,83,0,0,0,0,0,0,0,0,0,0,0,0,0,0,0,0,0,0,0,0,0,0,0,0,0,0,0,0,0,0,0,0,0,0,0,0,0,0,0,0,0,0,0,0,0,0,0,0,0,0,0,0,0,0,0,0,0,92,0,0,
0,0,0,84,0,0,0,0,0,0,88,0,80,88,0,0,0,0,0,0,0,0,0,0,0,0,0,0,0,0,0,0,0,0,0,0,0,0,0,0,0,0,0,0,0,0,0,0,0,0,0,0,0,0,0,0,0,0,0,0,0,0,0,0,
0,0,0,0,0,0,0,0,0,0,0,80,98,0,0,0,0,0,0,0,0,0,0,0,0,0,0,0,0,0,0,0,0,0,0,0,0,0,0,0,0,0,0,0,0,0,0,0,0,0,0,0,0,0,0,0,0,0,0,0,0,0,0,0,
0,0,0,0,0,0,0,0,0,0,0,80,0,0,0,0,0,0,0,0,0,0,0,0,0,0,0,0,0,0,0,0,0,0,0,0,0,0,0,0,0,0,0,0,0,0,0,0,0,0,0,0,0,0,0,0,0,0,93,0,0,0,0,0,
0,0,0,92,0,0,0,0,0,0,0,0,0,94,0,0,0,0,0,0,0,88,0,0,0,0,0,0,0,88,0,0,0,0,0,0,0,0,0,0,0,0,0,0,0,0,0,0,0,0,0,0,0,0,0,0,84,0,0,0,90,0,0,0,
0,0,0,0,0,0,0,0,0,0,0,0,0,0,0,0,0,0,0,0,0,0,0,0,0,0,0,0,0,0,0,0,0,0,0,0,0,0,0,0,0,0,0,0,0,0,0,0,0,0,0,0,0,0,0,0,0,0,0,0,0,0,0,0,
0,0,95,0,0,0,98,0,0,83,0,0,0,0,0,0,0,0,0,0,0,0,0,0,0,0,0,0,0,0,0,0,0,0,0,0,0,0,0,0,0,0,0,0,0,0,0,0,0,0,0,0,0,0,0,0,0,0,0,0,79,95,0,0,
0,0,0,0,0,0,0,0,0,0,0,0,0,0,0,0,0,0,0,0,0,0,0,0,0,0,0,0,0,0,0,0,0,0,0,0,0,0,0,0,0,0,0,0,0,0,0,0,0,0,0,0,0,0,0,0,0,84,93,80,0,0,0,0,
0,0,0,0,0,79,90,98,88,0,93,0,0,0,0,0,0,0,0,0,0,0,0,0,0,0,0,0,0,0,0,0,0,0,0,0,0,0,0,0,0,0,0,0,0,0,0,0,0,0,0,0,0,0,0,0,0,0,0,0,0,0,0,0,
0,0,0,0,0,95,0,0,0,0,0,0,0,0,0,0,0,0,0,0,0,0,0,0,0,0,0,0,0,0,0,0,0,0,0,0,0,0,0,0,0,0,0,0,0,0,0,0,0,0,0,0,0,0,0,0,0,0,0,0,0,98,0,0,
0,0,0,0,0,0,0,0,90,0,0,0,98,0,0,0,0,0,0,0,0,0,0,0,0,0,0,0,0,0,0,0,0,0,0,0,0,0,0,0,0,0,0,0,0,0,0,0,0,0,0,0,0,0,0,0,0,0,0,0,0,0,0,0,
0,0,0,0,0,0,0,0,0,0,0,0,0,0,0,0,0,0,0,0,0,0,0,0,0,0,0,0,0,0,0,0,0,0,0,0,0,0,0,0,0,0,0,0,0,0,0,0,0,0,0,0,0,0,0,0,0,0,0,0,0,0,0,0,
0,93,84,93,0,0,0,0,0,0,0,0,0,0,0,0,0,0,0,0,0,0,0,0,0,0,0,0,0,0,0,0,0,0,0,0,0,0,0,0,0,0,0,0,0,0,0,0,0,0,0,0,0,0,0,0,0,0,0,0,0,0,0,0,
0,103,90,0,0,0,0,0,0,0,0,92,0,0,0,0,0,0,94,0,0,0,0,0,0,0,0,0,0,0,0,0,0,0,0,0,0,0,0,0,0,0,0,0,0,0,0,0,0,0,0,0,0,0,0,0,0,0,0,0,0,0,0,0,
0,0,80,95,0,0,0,0,103,0,0,0,0,80,0,0,0,0,0,0,0,0,0,0,0,0,0,0,0,0,0,0,0,0,0,0,0,0,0,0,0,0,0,0,0,0,0,0,0,0,0,0,0,0,0,0,0,0,0,0,0,0,93,0,
0,0,0,0,0,0,0,0,0,0,0,0,0,0,0,0,0,0,0,0,0,0,0,0,0,0,0,0,0,0,0,0,0,0,0,0,0,0,0,0,0,0,0,0,0,0,0,0,0,0,0,0,0,0,0,0,0,0,0,0,0,0,0,0,
0,0,93,0,0,0,0,0,0,0,0,0,0,0,0,0,0,0,0,0,0,0,0,0,0,88,0,0,0,0,0,0,0,0,0,0,0,0,88,0,0,0,0,0,0,0,0,0,0,0,0,0,0,0,0,0,0,0,95,0,84,80,0,0,
0,0,103,0,0,88,0,0,0,0,0,0,0,90,0,0,0,0,0,0,0,0,0,0,0,0,0,0,0,0,0,0,0,0,0,0,0,0,0,0,0,0,0,0,0,0,94,0,0,0,0,0,0,0,0,0,0,0,0,0,0,0,0,0,
0,0,0,0,0,0,0,0,0,98,0,0,0,0,0,0,0,0,0,0,0,0,0,0,0,0,0,0,0,0,0,0,0,0,0,0,0,0,0,0,0,0,0,0,0,0,0,0,0,0,0,0,0,0,0,0,0,0,0,0,0,0,0,0,
0,0,0,0,0,0,0,0,0,0,0,0,0,0,0,0,0,0,0,0,0,0,0,0,0,0,0,0,0,0,0,0,0,0,0,0,0,0,0,0,0,0,0,0,0,0,0,0,0,0,0,0,0,0,0,0,0,0,0,84,0,0,0,0,
0,0,92,103,0,0,0,0,0,0,0,0,92,0,0,0,0,0,0,0,0,0,0,0,0,0,0,0,0,0,0,0,0,0,0,0,0,0,0,0,0,0,0,0,0,0,0,0,0,0,0,0,0,0,0,92,0,0,0,0,0,0,0,0,
0,84,0,0,0,0,0,0,0,0,0,0,0,0,0,0,0,0,0,0,0,0,0,0,0,88,0,0,0,0,0,0,0,0,0,0,0,0,88,0,0,0,88,0,0,0,0,0,0,0,0,0,0,0,0,0,0,0,0,0,0,0,0,0,
0,0,0,0,0,0,0,0,0,0,0,0,0,0,0,0,0,0,0,0,0,0,0,0,0,0,0,0,0,0,0,0,0,0,0,0,0,0,0,0,0,0,0,0,0,0,0,0,0,0,0,0,0,0,0,0,0,0,0,0,90,0,0,0,
0,0,0,0,0,0,0,0,0,0,0,80,0,0,0,0,0,0,0,0,0,0,0,0,0,0,0,94,0,0,0,0,0,0,0,0,0,0,94,0,0,0,0,0,0,0,0,0,0,0,0,0,0,0,0,0,0,0,0,0,0,0,79,0,
0,0,0,0,0,0,0,90,0,0,0,0,0,0,0,0,0,0,0,0,0,0,0,0,0,0,0,0,0,0,0,0,0,0,0,0,0,0,0,0,0,0,0,0,0,0,0,0,0,0,0,0,0,0,0,0,103,0,0,0,0,0,0,0,
0,0,0,83,0,0,0,0,83,0,0,0,0,0,0,0,0,0,0,0,0,0,0,0,0,0,0,0,0,0,0,0,0,0,0,0,0,0,0,0,0,0,0,0,0,0,0,0,0,0,0,0,93,0,0,0,0,0,0,0,0,0,0,0,
0,0,0,0,0,0,0,0,0,98,0,0,0,0,0,0,0,0,0,0,0,0,0,0,0,0,0,0,0,0,0,0,0,0,0,0,0,0,0,0,0,0,0,0,0,0,0,0,0,0,0,0,0,0,0,0,0,0,93,0,0,93,0,0,
0,0,0,0,0,0,0,0,0,0,0,0,0,0,0,0,0,0,0,0,0,0,0,0,0,0,0,0,0,0,0,0,0,0,0,0,0,0,0,0,0,0,0,0,0,0,0,0,0,0,0,0,0,0,0,0,0,0,0,0,92,0,0,0,
0,0,0,0,0,0,0,92,0,0,0,0,92,0,0,0,0,0,0,0,0,0,0,0,0,0,0,0,0,0,0,0,0,0,0,0,0,0,0,0,0,0,0,0,0,0,0,0,0,0,0,0,0,0,0,0,0,0,0,0,0,0,0,0,
0,79,0,0,83,94,0,0,0,84,0,0,0,0,0,0,0,0,0,0,0,0,0,0,0,0,0,0,0,0,0,0,0,0,0,0,0,0,0,0,0,0,0,0,0,0,0,0,0,0,0,0,0,0,0,0,0,0,0,0,0,0,0,0,
0,0,0,0,0,80,0,0,0,0,0,0,0,0,0,0,0,0,0,0,0,0,0,0,0,92,0,0,0,0,0,0,0,0,0,0,0,0,0,0,0,80,0,0,0,88,0,0,0,0,0,0,0,0,0,0,0,0,0,0,0,95,0,0,
0,0,0,0,0,0,0,0,0,90,0,0,0,0,0,0,93,0,0,0,0,0,0,0,0,0,0,0,103,0,0,0,0,0,0,0,0,0,0,0,0,0,0,0,0,0,0,0,0,0,0,0,0,79,0,0,0,0,0,0,0,0,0,0,
0,92,0,0,0,0,0,0,0,0,0,0,0,0,0,0,0,0,0,0,0,0,90,0,0,0,0,0,0,0,0,0,0,0,0,0,0,0,0,0,0,0,0,0,0,0,79,0,93,95,0,0,0,0,0,93,0,0,0,0,0,92,0,0,
0,0,0,0,0,0,0,0,0,103,0,0,79,0,0,0,0,0,0,0,0,0,0,0,0,0,0,0,0,0,0,0,0,0,0,0,0,0,0,0,84,0,0,95,0,93,0,0,93,0,0,80,0,0,0,0,0,0,0,0,0,0,0,0,
0,94,0,92,0,0,83,0,0,0,0,0,0,0,83,0,0,0,0,0,0,88,0,0,0,0,0,0,0,0,0,0,0,0,0,0,0,0,0,0,0,0,0,0,0,0,0,0,0,0,0,0,93,0,0,98,0,90,0,0,0,0,0,0,
0,0,0,0,0,0,0,80,0,0,0,0,0,0,0,0,0,0,0,0,0,0,0,0,0,0,84,0,0,0,0,0,0,0,0,0,0,0,0,0,0,0,0,0,95,0,0,0,0,0,0,0,90,0,0,0,0,0,95,0,0,0,0,0,
0,0,92,94,0,0,0,0,0,0,0,0,0,0,0,0,0,0,0,0,0,80,0,0,0,0,0,0,0,0,0,0,0,0,0,0,0,79,0,0,0,0,0,0,0,0,0,0,0,0,98,0,0,0,98,0,98,0,0,0,0,0,0,0,
0,0,0,0,0,0,0,0,0,83,0,0,0,0,0,0,79,0,0,0,0,0,0,0,90,0,0,83,0,0,0,0,0,0,0,0,0,0,0,0,0,0,0,0,0,0,0,0,0,92,0,0,0,0,0,0,0,0,0,0,0,0,0,0,
0,0,0,0,93,0,79,0,0,0,0,0,0,0,0,0,0,0,0,84,79,0,0,0,0,84,0,90,0,0,0,0,0,0,0,0,90,0,0,0,0,0,0,0,0,83,0,0,95,0,0,0,0,84,0,0,0,0,0,0,0,0,0,0,
0,0,0,0,0,0,0,0,0,90,0,0,0,0,0,0,0,93,0,0,0,98,0,0,0,0,0,0,0,0,0,0,0,0,0,0,0,0,80,0,0,83,0,84,0,0,0,88,0,0,0,0,0,0,0,0,92,0,0,0,0,0,0,0,
0,0,0,0,0,0,0,95,98,0,0,0,0,0,0,0,0,0,0,0,0,0,0,0,0,0,0,0,0,0,0,0,0,0,0,0,0,0,0,0,0,0,0,0,80,90,0,0,0,0,0,0,0,93,0,0,0,0,0,0,0,0,0,0,
0,0,88,0,0,0,0,0,0,0,0,0,0,0,0,0,0,95,0,95,0,0,0,0,0,0,0,0,0,0,0,0,0,0,0,0,0,0,0,84,98,0,84,0,0,0,0,94,94,0,0,92,84,95,0,0,0,0,0,0,0,0,0,0,
0,0,0,0,0,0,0,0,0,0,0,0,0,0,0,0,0,0,0,0,0,0,0,0,0,0,0,0,0,0,0,0,0,0,0,0,0,0,90,0,0,0,0,0,0,0,0,0,0,98,0,0,0,0,0,0,94,0,0,0,0,0,0,0,
0,0,0,0,0,0,0,0,0,0,0,0,0,0,0,0,0,0,0,0,0,0,0,0,0,0,0,0,0,0,0,0,0,0,0,0,0,0,0,0,0,0,0,0,0,0,0,0,0,0,0,0,0,0,0,0,0,0,0,0,0,0,0,0
</data>
 </layer>
 <layer id="4" name="Trees" width="64" height="64">
  <properties>
   <property name="worldRole" value="cutout" />
   <property name="worldSolid" value="true" type="bool" />
  </properties>
  <data encoding="csv">
0,0,0,0,0,0,0,0,0,0,0,0,0,0,0,0,0,0,0,0,0,0,0,0,0,0,0,0,0,0,0,0,0,0,0,0,0,0,0,0,0,0,0,0,0,0,0,0,0,0,0,0,0,0,0,0,0,0,0,0,0,0,0,0,
0,0,115,0,0,0,115,0,0,0,112,0,0,0,118,0,0,0,0,0,118,0,0,0,0,0,0,118,0,0,0,0,0,0,0,0,0,117,0,0,0,0,118,0,0,0,0,0,0,0,117,0,0,0,0,0,0,0,0,0,0,0,0,0,
0,0,0,0,0,0,0,0,0,0,0,0,0,0,0,0,0,115,0,0,0,0,0,0,0,0,0,0,0,0,0,116,0,0,0,0,0,0,0,0,0,0,0,0,0,0,0,0,0,0,0,0,0,0,0,0,0,0,0,0,112,0,0,0,
0,0,0,0,115,0,0,0,0,0,0,0,0,0,0,0,0,0,0,0,0,0,0,115,0,0,0,0,0,0,0,0,0,0,0,0,0,0,0,0,0,0,0,0,0,0,116,0,0,0,0,0,0,0,0,0,0,0,0,0,0,0,0,0,
0,0,0,0,0,0,0,0,0,0,0,112,0,0,0,0,0,0,0,118,0,0,0,0,0,0,0,0,115,0,0,0,0,0,0,0,0,116,0,0,0,0,0,112,0,0,0,0,0,0,0,0,116,0,0,115,0,0,0,0,0,0,0,0,
0,0,0,0,0,0,0,0,0,0,0,0,0,0,0,115,0,0,0,0,0,0,0,0,0,118,0,0,0,0,0,0,0,0,0,0,0,0,0,0,0,0,0,0,0,0,0,0,0,0,0,0,0,0,0,0,0,0,0,0,0,115,0,0,
0,115,0,0,0,111,0,0,0,111,0,0,0,0,0,0,0,0,0,0,0,0,0,0,0,0,0,0,0,0,0,0,0,0,0,0,0,0,0,0,0,0,0,0,0,0,0,0,0,0,116,0,0,0,0,0,0,0,0,0,0,0,0,0,
0,0,0,0,0,0,0,0,0,0,0,0,116,0,0,0,0,0,0,0,0,0,0,0,0,0,0,0,0,0,0,0,0,0,0,0,0,0,0,0,0,0,0,0,0,0,0,0,0,0,0,0,0,117,0,0,0,116,0,0,0,0,0,0,
0,0,0,0,0,0,0,0,0,0,0,0,0,0,0,0,0,0,0,0,0,0,0,0,0,0,0,0,0,0,0,0,0,0,0,0,0,0,0,0,0,0,0,0,0,0,0,0,0,0,0,0,0,0,0,0,0,0,0,0,111,0,0,0,
0,0,0,0,0,0,0,0,112,0,0,0,0,0,0,0,0,0,0,0,0,0,0,0,0,0,0,0,0,0,0,0,0,0,0,0,0,0,0,0,0,0,0,0,0,0,0,0,0,0,0,0,0,0,0,112,0,0,0,0,0,0,0,0,
0,0,0,0,0,0,0,0,0,0,0,0,0,0,0,0,0,0,0,0,0,0,0,0,0,0,0,0,0,0,0,0,0,0,0,0,0,0,0,0,0,0,0,0,0,0,0,0,0,0,0,0,0,0,0,0,0,0,116,0,0,0,0,0,
0,0,0,0,118,0,0,0,0,0,0,0,0,117,0,0,0,0,0,0,0,0,0,0,0,0,0,0,0,0,0,0,0,0,0,0,0,0,0,0,0,0,0,0,0,0,0,0,0,0,0,0,0,111,0,0,0,0,0,0,0,0,0,0,
0,0,0,0,0,0,0,0,0,0,0,0,0,0,0,0,0,0,0,0,0,0,0,0,0,0,0,0,0,0,0,0,0,0,0,0,0,0,0,0,0,0,0,0,0,0,0,0,0,0,0,0,0,0,0,0,0,0,0,0,118,0,0,0,
0,0,0,0,0,0,0,0,0,0,116,0,0,0,0,0,0,0,0,0,0,0,0,0,0,0,0,0,0,0,0,0,0,0,0,0,0,0,0,0,0,0,0,0,0,0,0,0,0,0,0,0,0,0,0,0,0,0,0,0,0,0,0,0,
0,118,0,0,0,0,0,0,0,0,0,0,0,116,0,0,0,0,0,0,0,0,0,0,0,0,0,0,0,0,0,0,0,0,0,0,0,0,0,0,0,0,0,0,0,0,0,0,0,0,0,0,0,0,0,112,0,0,112,0,0,0,118,0,
0,0,0,0,111,0,0,0,0,0,0,0,0,0,0,0,0,0,0,0,0,0,0,0,0,0,0,0,0,0,0,0,0,0,0,0,0,0,0,0,0,0,0,0,0,0,0,0,0,0,0,0,0,0,0,0,0,0,0,0,0,0,0,0,
0,0,0,0,0,0,0,0,0,0,0,0,0,0,0,0,0,0,0,0,0,0,0,0,0,0,0,0,0,0,0,0,0,0,0,0,0,0,0,0,0,0,0,0,0,0,0,0,0,0,0,0,0,0,0,0,0,0,0,0,0,0,0,0,
0,112,0,0,0,0,0,115,0,0,0,0,0,0,0,0,0,0,0,0,0,0,0,0,0,0,0,0,0,0,0,0,0,0,0,0,0,0,0,0,0,0,0,0,0,0,0,0,0,0,0,0,0,0,0,0,0,0,115,0,0,0,0,0,
0,0,0,0,0,0,0,0,0,0,0,111,0,0,0,0,0,0,0,0,0,0,0,0,0,0,0,0,0,0,0,0,0,0,0,0,0,0,0,0,0,0,0,0,0,0,0,0,0,0,0,0,0,0,0,0,0,0,0,0,0,0,117,0,
0,0,0,0,0,0,0,0,0,0,0,0,0,0,0,0,0,0,0,0,0,0,0,0,0,0,0,0,0,0,0,0,0,0,0,0,0,0,0,0,0,0,0,0,0,0,0,0,0,0,0,0,0,0,0,0,0,0,0,0,0,0,0,0,
0,0,0,0,115,0,0,0,0,0,0,0,0,0,0,0,0,0,0,0,0,0,0,0,0,0,0,0,0,0,0,0,0,0,0,0,0,0,0,0,0,0,0,0,0,0,0,0,0,0,0,0,0,0,0,0,0,0,0,0,0,0,0,0,
0,0,0,0,0,0,0,0,0,0,0,0,0,0,0,0,0,0,0,0,0,0,0,0,0,0,0,0,0,0,0,0,0,0,0,0,0,0,0,0,0,0,0,0,0,0,0,0,0,0,0,0,0,0,0,0,0,118,0,0,0,0,0,0,
0,0,111,0,0,0,117,0,0,0,0,0,0,118,0,0,0,0,0,0,0,0,0,0,0,0,0,0,0,0,0,0,0,0,0,0,0,0,0,0,0,0,0,0,0,0,0,0,0,0,0,0,0,0,0,0,0,0,0,0,0,0,0,0,
0,0,0,0,0,0,0,0,0,0,0,0,0,0,0,0,0,0,0,0,0,0,0,0,0,0,0,0,0,0,0,0,0,0,0,0,0,0,0,0,0,0,0,0,0,0,0,0,0,0,0,0,0,0,0,0,0,0,0,0,0,0,0,0,
0,0,0,0,0,0,0,0,116,0,0,0,0,0,0,0,0,0,0,0,0,0,0,0,0,0,0,0,0,0,0,0,0,0,0,0,0,0,0,0,0,0,0,0,0,0,0,0,0,0,0,0,0,0,0,0,0,0,0,0,0,111,0,0,
0,0,0,0,0,0,0,0,0,0,0,0,0,0,0,0,0,0,0,0,0,0,0,0,0,0,0,0,0,0,0,0,0,0,0,0,0,0,0,0,0,0,0,0,0,0,0,0,0,0,0,0,0,0,0,0,0,0,0,0,0,0,0,0,
0,0,0,0,0,0,0,0,0,0,0,0,0,0,0,0,0,0,0,0,0,0,0,0,0,0,0,0,0,0,0,0,0,0,0,0,0,0,0,0,0,0,0,0,0,0,0,0,0,0,0,0,0,0,0,0,0,0,0,0,0,0,0,0,
0,0,115,0,0,111,0,0,0,112,0,0,116,0,0,0,0,0,0,0,0,0,0,0,0,0,0,0,0,0,0,0,0,0,0,0,0,0,0,0,0,0,0,0,0,0,0,0,0,0,0,0,0,0,0,0,0,0,0,0,0,111,0,0,
0,0,0,0,0,0,0,0,0,0,0,0,0,0,0,0,0,0,0,0,0,0,0,0,0,0,0,0,0,0,0,0,0,0,0,0,0,0,0,0,0,0,0,0,0,0,0,0,0,0,0,0,0,0,0,0,0,0,0,0,0,0,0,0,
0,0,0,0,0,0,0,0,0,0,0,0,0,0,0,0,0,0,0,0,0,0,0,0,0,0,0,0,0,0,0,0,0,0,0,0,0,0,0,0,0,0,0,0,0,0,0,0,0,0,0,0,0,0,0,0,0,0,0,118,0,0,0,0,
0,0,112,0,0,0,0,0,0,0,0,0,0,0,0,0,0,0,0,0,0,0,0,0,0,0,0,0,0,0,0,0,0,0,0,0,0,0,0,0,0,0,0,0,0,0,0,0,0,0,0,0,0,0,0,0,0,0,0,0,0,0,0,0,
0,0,0,0,0,0,0,0,0,0,117,0,0,0,0,0,0,0,0,0,0,0,0,0,0,0,0,0,0,0,0,0,0,0,0,0,0,0,0,0,0,0,0,0,0,0,0,0,0,0,0,0,0,0,0,0,0,0,0,0,0,0,0,0,
0,0,0,0,0,0,0,0,0,0,0,0,0,111,0,0,0,0,0,0,0,0,0,0,0,0,0,0,0,0,0,0,0,0,0,0,0,0,0,0,0,0,0,0,0,0,0,0,0,0,0,0,0,0,0,0,0,0,116,0,0,0,116,0,
0,0,0,0,0,0,0,0,0,0,0,0,0,0,0,0,0,0,0,0,0,0,0,0,0,0,0,0,0,0,0,0,0,0,0,0,0,0,0,0,0,0,0,0,0,0,0,0,0,0,0,0,0,0,0,0,0,0,0,0,0,0,0,0,
0,0,0,0,0,0,0,0,0,118,0,0,0,0,0,0,0,0,0,0,0,0,0,0,0,0,0,0,0,0,0,0,0,0,0,0,0,0,0,0,0,0,0,0,0,0,0,0,0,0,0,0,0,0,0,0,0,0,0,0,112,0,0,0,
0,111,0,0,0,0,0,0,0,0,0,0,112,0,0,0,0,0,0,0,0,0,0,0,0,0,0,0,0,0,0,0,0,0,0,0,0,0,0,0,0,0,0,0,0,0,0,0,0,0,0,0,0,0,0,0,111,0,0,0,0,0,0,0,
0,0,0,0,0,0,0,0,0,0,0,0,0,0,0,0,0,0,0,0,0,0,0,0,0,0,0,0,0,0,0,0,0,0,0,0,0,0,0,0,0,0,0,0,0,0,0,0,0,0,0,0,0,0,0,0,0,0,0,0,0,0,0,0,
0,0,0,0,0,0,0,111,0,0,0,0,0,0,0,0,0,0,0,0,0,0,0,0,0,0,0,0,0,0,0,0,0,0,0,0,0,0,0,0,0,0,0,0,0,0,0,0,0,0,0,0,0,0,0,0,0,0,0,0,118,0,0,0,
0,0,115,0,0,0,0,0,0,0,118,0,0,111,0,0,0,0,0,0,0,0,0,0,0,0,0,0,0,0,0,0,0,0,0,0,0,0,0,0,0,0,0,0,0,0,0,0,0,0,0,0,0,0,0,0,118,0,0,0,0,0,0,0,
0,0,0,0,0,0,0,0,0,0,0,0,0,0,0,0,0,0,0,0,0,0,0,0,0,0,0,0,0,0,0,0,0,0,0,0,0,0,0,0,0,0,0,0,0,0,0,0,0,0,0,0,0,0,0,0,0,0,0,0,0,0,0,0,
0,0,0,0,0,0,117,0,0,0,0,0,0,0,0,0,0,0,0,0,0,0,0,0,0,0,0,0,0,0,0,0,0,0,0,0,0,0,0,0,0,0,0,0,0,0,0,0,0,0,0,0,0,0,0,0,0,0,0,0,0,0,0,0,
0,0,0,0,0,0,0,0,0,0,116,0,0,118,0,0,0,0,0,0,0,0,0,0,0,0,0,0,0,0,0,0,0,0,0,0,0,0,0,0,0,0,0,0,0,0,0,0,0,0,0,0,0,0,0,0,0,0,0,0,0,0,0,0,
0,0,0,0,0,0,0,0,0,0,0,0,0,0,0,0,0,0,0,0,0,0,0,0,0,0,0,0,0,0,0,0,0,0,0,0,0,0,0,0,0,0,0,0,0,0,0,0,0,0,0,0,0,0,0,0,0,0,115,0,0,117,0,0,
0,116,0,0,111,0,0,0,111,0,0,0,0,0,0,0,0,0,0,0,0,0,0,0,0,0,0,0,0,0,0,0,0,0,0,0,0,0,0,0,0,0,0,0,0,0,0,0,0,0,0,0,0,0,111,0,0,0,0,0,0,0,0,0,
0,0,0,0,0,0,0,0,0,0,0,0,0,0,0,0,0,0,0,0,0,0,0,0,0,0,0,0,0,0,0,0,0,0,0,0,0,0,0,0,0,0,0,0,0,0,0,0,0,0,0,0,0,0,0,0,0,0,0,0,0,0,0,0,
0,0,0,0,0,0,0,0,0,0,0,118,0,0,0,0,0,0,0,0,0,0,0,0,0,0,0,0,0,0,0,0,0,0,0,0,0,0,0,0,0,0,0,0,0,0,0,0,0,0,0,0,0,0,0,0,0,115,0,0,0,117,0,0,
0,0,0,112,0,0,0,0,0,0,0,0,0,0,0,0,0,0,0,0,0,0,0,0,0,0,0,0,0,0,0,0,0,0,0,0,0,0,0,0,0,0,0,0,0,0,0,0,0,0,0,0,0,0,0,0,0,0,0,0,0,0,0,0,
0,0,0,0,0,0,115,0,0,0,0,0,0,0,0,0,0,0,0,0,0,0,0,0,0,0,0,0,0,0,0,0,0,0,0,0,0,0,0,0,0,0,0,0,0,0,0,0,0,0,0,0,115,0,0,0,0,0,0,0,0,0,0,0,
0,0,0,0,0,0,0,0,0,117,0,0,0,112,0,0,0,0,0,0,0,0,0,0,0,0,0,0,0,0,0,0,0,0,0,0,0,0,0,0,0,0,0,0,0,0,0,0,0,0,0,0,0,0,0,0,0,0,0,0,0,0,0,0,
0,0,0,0,0,0,0,0,0,0,0,0,0,0,0,0,0,0,0,0,0,0,0,0,0,0,0,0,0,0,0,0,0,0,0,0,0,0,0,0,0,0,0,0,0,0,0,0,0,0,0,0,0,0,116,0,0,0,0,0,0,0,0,0,
0,0,111,0,0,0,116,0,0,0,0,0,0,0,0,0,118,0,0,0,0,0,0,0,0,0,116,0,0,0,0,0,0,0,0,0,117,0,0,0,0,0,0,0,0,0,0,0,0,0,0,118,0,0,0,0,0,0,0,0,116,0,0,0,
0,0,0,0,0,0,0,0,0,0,0,116,0,0,0,0,0,0,0,112,0,0,0,0,0,0,0,0,0,0,0,0,0,0,0,0,0,0,0,116,0,0,116,0,0,0,0,111,0,0,0,0,0,0,0,0,116,0,0,0,0,0,0,0,
0,0,0,0,112,0,0,0,0,0,0,0,0,0,115,0,0,0,0,0,0,0,0,0,111,0,0,0,0,0,0,0,0,0,0,0,0,0,0,0,0,0,0,0,0,0,0,0,0,0,0,0,0,0,0,0,0,0,0,0,0,0,0,0,
0,0,0,0,0,0,0,0,0,0,0,0,0,0,0,0,0,0,0,0,0,0,0,0,0,0,0,0,111,0,0,0,0,0,0,0,0,0,0,0,0,0,0,0,115,0,0,0,0,0,117,0,0,0,0,0,0,0,0,111,0,0,0,0,
0,0,0,0,0,0,0,0,0,0,118,0,0,0,0,0,0,0,0,116,0,0,118,0,0,0,0,0,0,0,0,0,0,0,0,0,0,115,0,0,0,0,0,0,0,0,0,117,0,0,0,0,0,111,0,0,0,0,0,0,0,0,117,0,
0,111,0,0,0,0,0,0,0,0,0,0,0,0,0,115,0,0,0,0,0,0,0,0,0,0,0,0,0,0,0,0,0,0,0,0,0,0,0,0,0,0,0,0,0,0,0,0,0,0,0,0,0,0,0,0,0,0,0,0,0,0,0,0,
0,0,0,0,0,117,0,0,0,0,0,0,0,0,0,0,0,0,0,0,0,0,0,0,0,115,0,0,118,0,0,0,0,0,0,0,0,0,0,0,0,0,0,0,0,0,0,0,0,0,0,0,0,0,0,112,0,0,0,0,0,0,0,0,
0,0,0,0,0,0,0,0,0,0,0,0,117,0,0,0,0,0,0,0,0,0,0,0,0,0,0,0,0,0,0,0,0,0,0,0,0,115,0,0,0,0,0,0,0,0,0,0,115,0,0,0,0,0,0,0,0,0,0,0,0,0,0,0,
0,0,0,0,0,0,0,0,0,115,0,0,0,0,0,0,0,0,112,0,0,0,0,115,0,0,0,0,0,0,0,0,0,0,0,0,0,0,0,0,0,0,111,0,0,0,0,0,0,0,0,0,0,0,0,0,0,0,0,0,0,0,0,0,
0,0,0,115,0,0,0,0,0,0,0,0,0,0,0,0,0,0,0,0,0,0,0,0,0,0,0,0,0,0,0,0,0,0,0,0,0,0,0,0,0,0,0,0,0,0,0,0,0,0,0,0,0,0,0,118,0,0,0,0,112,0,0,0,
0,0,0,0,0,0,0,0,0,0,0,0,0,0,0,0,111,0,0,0,0,0,0,0,0,0,116,0,0,0,0,0,0,0,0,0,0,0,0,0,116,0,0,0,0,0,0,0,0,0,0,117,0,0,0,0,0,0,0,0,0,0,0,0,
0,0,0,0,0,117,0,0,0,118,0,0,111,0,0,0,0,0,0,0,0,0,0,0,0,0,0,0,0,0,0,0,0,0,0,0,0,112,0,0,0,0,0,0,0,0,111,0,0,0,0,0,0,0,0,0,0,0,116,0,0,0,0,0,
0,0,115,0,0,0,0,0,0,0,0,0,0,0,0,0,0,0,115,0,0,0,0,0,0,0,0,0,0,0,0,0,0,0,0,0,0,0,0,0,0,0,0,116,0,0,0,0,0,0,0,0,0,0,0,0,0,0,0,0,0,0,0,0,
0,0,0,0,0,0,0,0,0,0,0,0,0,0,0,0,0,0,0,0,0,0,0,0,0,0,0,0,0,0,0,0,0,0,0,0,0,0,0,0,0,0,0,0,0,0,0,0,0,0,0,0,0,0,0,0,0,0,0,0,0,0,0,0
</data>
 </layer>
</map>
