<?xml version='1.0' encoding='UTF-8'?>
<map version="1.10" tiledversion="1.11.1" orientation="isometric" renderorder="right-down" width="64" height="64" tilewidth="64" tileheight="32" infinite="0" nextlayerid="3" nextobjectid="1">
 <properties>
  <property name="locationName" value="The Salt Graves" />
 </properties>
 <tileset firstgid="1" source="background.tsx" />
 <tileset firstgid="31" source="mountin.tsx" />
 <tileset firstgid="63" source="items1.tsx" />
 <tileset firstgid="95" source="items2.tsx" />
 <tileset firstgid="111" source="trees1.tsx" />
 <tileset firstgid="115" source="trees2.tsx" />
 <layer id="1" name="Ground" width="64" height="64">
  <properties>
   <property name="worldRole" value="ground" />
   <property name="worldElevation" value="0.0" type="float" />
   <property name="worldTint" value="b5abff" />
   <property name="worldBrightness" value="3.3" type="float" />
  </properties>
  <data encoding="csv">
5,3,2,5,2,5,2,5,3,5,3,2,2,3,3,2,3,3,3,2,5,3,3,2,6,9,6,9,8,8,6,9,6,6,5,2,3,3,5,5,2,2,2,5,5,3,5,8,9,9,9,9,9,9,9,8,8,8,8,9,9,6,3,2,
5,3,3,3,3,3,5,2,5,2,5,2,3,3,2,3,3,3,5,2,3,3,5,8,6,8,9,8,8,8,9,9,8,8,6,3,3,3,3,2,5,5,5,2,2,3,3,2,8,9,9,9,8,6,8,6,9,6,8,8,9,3,3,3,
3,2,3,3,2,5,5,3,3,2,5,5,2,3,3,3,5,3,2,3,2,2,6,8,6,8,8,8,9,9,6,9,8,9,8,8,6,2,3,2,5,5,3,2,3,3,2,8,9,9,8,6,6,8,8,9,9,6,6,8,9,5,3,3,
3,5,2,3,3,3,5,3,3,3,3,3,3,2,5,5,3,3,2,5,2,6,9,8,6,9,9,6,8,9,8,9,6,6,8,8,6,8,8,5,3,2,2,5,2,5,2,8,6,8,8,8,8,6,6,8,8,9,8,9,6,2,5,5,
2,3,2,2,5,5,2,5,2,2,2,5,3,2,3,5,3,3,5,5,9,9,9,8,8,9,8,8,6,8,8,6,9,9,6,9,8,8,8,9,8,3,3,3,5,8,6,9,9,6,8,6,8,6,9,9,9,8,8,6,8,6,3,5,
2,5,3,2,3,3,2,3,3,5,3,5,2,2,3,3,3,5,3,6,9,6,9,6,6,9,6,8,9,9,9,6,6,6,6,8,8,6,6,6,9,9,9,8,8,8,8,8,9,6,8,8,8,6,8,8,8,6,8,9,6,8,8,5,
2,5,2,5,2,2,2,2,3,3,2,2,3,3,2,3,5,2,9,6,8,8,6,9,6,9,9,9,6,8,9,6,8,8,8,8,9,8,6,6,8,9,8,8,6,8,9,6,9,8,9,9,8,9,8,9,9,6,6,9,6,6,6,9,
2,2,3,2,5,3,3,5,3,2,3,3,5,5,5,2,3,8,9,8,6,6,6,8,8,8,8,16,21,21,16,17,19,16,19,16,9,9,6,9,8,8,6,9,6,6,8,8,6,8,9,9,8,6,9,6,9,8,6,6,9,8,9,9,
6,2,2,5,5,2,5,5,5,3,2,2,2,2,2,6,9,6,6,9,9,8,8,6,6,8,17,21,19,16,17,17,17,16,16,16,16,8,8,8,8,6,9,8,6,9,8,6,9,9,6,9,6,9,6,9,8,9,9,9,8,8,8,9,
6,5,2,2,2,2,5,2,2,5,5,3,2,5,8,6,6,8,9,9,8,6,9,9,9,21,17,23,23,16,17,17,19,21,23,19,17,16,28,9,6,8,9,9,6,6,9,8,8,6,6,6,8,6,6,9,9,6,6,9,9,6,6,6,
8,9,5,5,2,5,3,3,5,3,2,3,2,6,8,8,9,6,9,9,8,8,6,6,19,16,17,19,17,17,16,23,19,21,21,16,23,16,16,26,6,8,30,8,6,8,9,6,9,6,9,8,8,6,9,9,6,6,6,6,9,9,6,8,
8,6,8,2,5,2,5,5,3,3,5,3,9,9,9,6,8,9,9,6,6,8,6,6,19,17,17,19,23,16,16,21,23,21,21,23,21,19,21,17,19,16,26,14,9,30,8,8,8,8,6,9,8,8,8,8,6,9,9,6,9,9,6,9,
6,8,8,5,2,2,5,3,3,2,2,8,8,9,8,9,6,8,6,6,8,9,8,8,21,23,16,19,17,17,21,17,19,19,16,17,21,19,19,23,19,16,23,17,21,16,14,26,30,9,28,8,9,9,6,6,8,9,8,6,8,8,8,6,
9,6,6,6,5,5,3,3,3,3,6,9,6,8,9,8,8,9,6,9,8,9,8,9,19,17,23,17,16,23,17,21,19,21,19,23,17,16,21,17,19,16,19,17,17,17,16,16,23,23,30,8,9,8,6,6,6,8,6,8,6,6,6,9,
6,6,9,9,5,2,3,2,5,6,9,8,6,8,6,9,8,9,8,8,8,8,9,6,21,17,19,23,17,16,23,17,19,23,23,16,16,17,17,26,8,28,28,6,21,17,16,17,17,23,21,14,6,6,6,6,6,9,6,8,8,9,6,6,
9,9,8,8,3,2,5,3,5,8,6,9,9,8,8,9,8,6,6,6,6,8,6,9,9,19,23,23,21,16,16,21,19,16,21,23,21,19,8,6,9,9,9,28,9,14,6,26,19,17,23,14,8,9,8,9,9,9,8,6,9,6,6,9,
8,8,6,8,3,5,5,5,2,9,9,6,8,6,8,6,6,9,6,6,9,8,6,6,8,9,23,17,21,16,21,17,23,23,21,23,16,8,6,8,9,6,6,9,6,8,9,8,8,21,21,8,26,9,9,9,8,9,8,6,6,9,9,6,
6,6,8,2,2,5,5,5,3,6,8,6,9,6,8,8,6,9,6,6,9,9,6,9,9,8,8,17,19,17,23,19,19,21,17,21,6,9,9,9,8,8,6,9,6,9,9,9,28,16,23,23,30,6,6,6,8,9,8,6,8,8,6,6,
9,8,3,2,5,5,3,3,2,3,8,9,6,9,8,8,6,8,8,9,8,6,8,25,9,9,8,25,26,17,23,16,16,16,28,9,8,25,9,8,8,3,25,2,5,3,2,25,26,19,19,23,6,9,6,6,8,9,6,6,9,8,8,6,
6,5,5,3,2,3,3,3,3,5,6,6,6,6,6,8,8,6,9,9,8,9,6,25,8,6,9,25,28,19,19,16,23,17,9,9,8,25,9,2,5,3,25,5,5,3,5,25,26,30,21,19,30,8,8,8,9,9,8,6,9,8,9,8,
5,3,3,3,5,3,3,3,5,5,2,8,8,8,6,9,6,9,8,6,6,6,8,8,9,6,8,9,28,19,16,16,17,23,26,9,8,6,5,2,2,3,3,2,2,3,2,3,3,28,16,23,21,30,9,9,6,6,9,6,6,6,8,8,
2,2,2,2,3,5,2,3,2,2,5,2,6,8,9,8,8,8,6,9,8,9,8,6,8,9,9,8,14,19,17,19,23,19,30,6,3,3,3,2,5,3,5,3,5,5,3,2,2,26,19,21,16,9,9,8,8,9,6,6,9,6,9,9,
3,3,3,3,3,5,3,5,5,2,5,2,6,6,6,8,9,6,8,8,8,9,8,9,8,8,9,6,8,23,19,19,17,16,30,5,2,3,5,2,2,3,3,2,5,3,3,5,2,3,3,23,21,26,28,9,8,8,8,8,9,9,6,9,
5,5,3,5,5,5,3,3,2,5,3,5,2,8,8,9,6,9,25,9,9,9,9,25,9,9,8,9,14,21,23,21,19,19,3,5,3,25,5,3,5,2,25,3,5,5,3,25,5,2,5,21,21,16,2,8,6,6,6,8,6,9,8,6,
5,5,2,3,5,2,2,5,5,3,5,5,3,6,6,8,9,6,25,8,9,8,6,25,6,8,6,6,28,16,19,19,17,21,3,5,3,25,2,5,5,3,25,3,2,2,5,25,5,5,5,19,21,21,5,9,9,8,8,8,8,6,8,6,
2,5,3,2,3,2,5,3,3,2,5,5,3,5,8,8,8,8,9,9,8,9,6,9,8,8,9,8,6,16,16,17,17,19,2,5,2,5,2,2,3,2,2,2,2,2,2,2,3,2,28,2,16,19,30,14,6,8,6,9,9,9,9,6,
2,3,3,3,2,3,2,2,5,5,5,3,2,2,9,9,8,9,8,9,8,6,9,6,8,9,6,8,6,19,23,19,16,23,30,3,2,5,3,5,5,2,3,2,3,3,2,3,2,5,2,28,19,16,17,14,9,6,9,8,8,9,8,8,
2,2,5,2,5,5,3,3,2,2,5,3,3,3,28,8,6,30,14,6,26,8,28,26,26,28,8,8,6,16,19,16,23,21,28,3,26,26,28,30,14,2,26,14,2,3,3,28,14,3,14,3,21,17,16,26,9,9,8,8,9,6,8,6,
3,3,2,5,3,2,5,5,3,2,14,17,23,19,16,21,17,23,23,17,23,21,17,21,19,19,23,23,16,16,21,16,19,19,19,16,21,23,16,19,17,21,17,17,23,17,17,19,16,21,19,19,19,21,23,8,14,9,9,8,6,8,6,8,
3,5,3,3,3,2,5,5,2,5,26,16,17,16,23,16,21,21,16,23,19,19,17,21,16,23,17,19,23,16,19,17,17,19,16,23,16,17,19,21,23,16,16,23,17,19,23,17,23,19,21,17,19,17,23,19,30,8,9,8,9,6,6,6,
5,2,3,3,3,2,2,3,3,2,28,19,21,23,19,23,19,16,23,16,17,17,17,19,17,19,17,23,23,19,17,21,23,23,19,16,17,23,23,19,16,16,21,21,23,23,16,21,17,23,21,19,16,19,23,21,28,8,9,8,6,6,8,6,
8,8,9,3,5,3,3,3,2,5,5,6,26,30,14,30,26,14,26,28,26,26,8,9,6,6,14,14,6,17,21,23,17,28,30,28,5,30,3,2,26,30,28,2,30,2,5,30,26,2,30,5,6,23,16,6,8,9,9,9,6,9,8,9,
6,8,9,9,9,6,9,8,6,8,9,8,9,6,8,9,8,8,6,6,6,9,9,6,8,6,9,6,26,21,19,19,23,5,14,3,5,5,2,5,3,5,3,3,3,3,3,2,2,5,5,9,21,19,17,26,9,6,8,9,6,8,6,6,
6,9,8,6,9,6,9,9,6,8,8,8,6,6,8,6,6,8,9,9,9,9,8,9,6,8,9,6,8,21,16,23,21,5,2,5,5,2,5,3,3,2,5,2,3,5,2,3,5,3,30,8,16,21,21,14,6,8,9,6,9,9,6,8,
6,9,9,8,8,6,8,9,6,8,6,6,6,9,9,9,8,8,9,8,8,6,8,6,6,8,9,9,14,16,23,21,17,3,2,5,2,2,2,5,2,3,5,2,5,3,5,3,5,6,8,17,16,17,14,28,8,8,8,6,8,9,9,8,
9,9,8,9,6,9,6,9,6,8,8,6,8,6,8,9,9,8,25,6,6,6,6,25,9,6,9,25,9,21,21,19,17,5,2,5,5,25,3,5,2,2,25,3,5,3,2,25,9,26,14,21,17,16,8,6,9,9,6,9,8,6,6,9,
6,8,6,9,9,8,6,8,6,6,6,6,9,9,9,6,9,8,25,9,9,8,9,25,8,8,8,25,14,23,23,21,21,30,3,3,3,25,5,2,3,2,25,2,5,2,5,25,6,6,19,21,19,28,8,6,8,6,9,9,9,8,9,8,
9,9,8,6,9,9,6,9,8,6,8,6,9,6,9,8,9,9,6,9,8,6,8,9,6,8,6,6,14,16,23,21,17,28,8,2,5,2,5,3,3,3,2,5,5,6,8,9,14,8,16,19,19,26,8,9,8,6,6,8,6,9,8,9,
9,6,9,6,9,9,6,6,8,9,8,8,9,9,9,9,8,9,9,6,9,8,9,8,8,9,9,9,14,17,23,19,19,8,6,6,3,5,2,5,3,3,3,5,8,8,8,9,26,21,16,19,26,14,6,6,6,8,8,6,9,9,6,8,
6,9,8,9,8,8,9,6,8,6,9,6,9,8,8,8,9,8,9,8,9,9,6,9,9,6,6,6,23,21,19,17,21,17,21,6,6,5,2,2,5,3,9,9,6,6,9,30,14,17,16,23,6,9,8,9,8,8,9,9,9,6,6,6,
9,6,8,8,9,8,6,9,8,9,6,8,6,9,8,9,6,9,25,9,6,9,6,25,8,8,9,25,19,16,23,16,19,23,17,17,8,25,9,8,6,6,25,6,9,6,6,25,16,19,23,28,30,8,8,8,6,9,9,8,6,9,8,9,
8,9,6,8,9,9,6,9,6,9,8,9,9,8,9,8,6,6,25,9,6,9,8,25,9,6,23,25,16,17,16,16,23,21,17,17,19,25,6,6,6,8,25,8,9,14,8,25,17,17,16,8,6,6,6,8,6,6,9,6,8,8,6,9,
6,6,8,6,8,6,9,6,8,6,9,6,6,8,9,8,9,9,6,8,9,6,8,9,8,8,19,23,16,23,21,23,21,21,23,21,17,8,9,28,6,8,26,21,23,19,17,23,17,17,9,28,9,8,8,6,6,8,9,9,9,9,9,9,
8,6,6,9,8,8,8,9,6,6,8,8,6,8,8,8,9,8,9,9,9,9,9,8,8,6,17,17,17,23,16,17,19,16,19,23,23,23,16,17,16,16,16,23,23,16,19,16,23,21,30,8,9,9,6,8,9,8,8,6,9,6,6,8,
8,6,6,9,6,8,9,8,6,9,8,8,9,8,8,6,9,8,8,9,6,9,8,9,9,9,21,23,23,23,17,23,23,16,19,17,19,16,17,16,19,19,17,23,17,19,16,16,21,8,14,6,9,8,8,6,6,9,8,9,6,6,9,6,
6,6,8,9,6,6,8,9,9,6,9,9,9,9,9,9,9,8,6,6,9,6,8,6,9,6,19,21,23,21,17,16,17,21,21,16,19,26,9,28,6,6,9,6,6,28,9,30,30,28,8,9,8,8,8,9,8,8,6,8,9,9,8,9,
6,6,6,8,6,9,8,8,9,9,8,6,9,9,9,6,9,8,6,6,9,9,9,6,8,9,9,21,19,23,17,17,17,23,21,23,6,30,9,8,8,9,6,8,6,9,6,6,9,6,8,6,8,6,6,9,6,8,8,8,8,6,9,9,
6,8,8,9,8,6,8,6,9,2,3,2,5,3,3,5,6,6,8,9,8,6,8,6,9,8,8,8,23,16,21,16,16,21,16,8,5,3,3,3,3,8,6,8,8,6,9,8,9,8,8,8,6,8,9,8,6,8,6,8,9,8,6,6,
9,9,6,8,6,8,3,5,5,3,5,3,2,3,3,3,5,2,9,9,9,9,8,9,9,9,9,6,17,16,16,17,23,14,3,2,2,5,2,5,5,5,6,8,9,9,9,8,6,8,6,8,6,8,9,6,8,6,6,6,8,8,8,9,
6,6,8,9,6,2,3,2,5,5,5,2,5,5,2,2,3,3,2,5,2,8,6,8,8,8,9,26,19,19,21,17,23,28,5,2,3,2,3,3,3,5,3,9,8,6,6,6,6,8,9,9,9,6,6,6,8,9,9,8,8,9,6,6,
8,8,9,8,3,3,3,5,5,2,3,5,5,3,5,3,3,5,2,2,3,5,3,8,8,6,9,8,19,23,21,21,16,30,5,2,3,3,2,3,5,2,2,5,8,8,9,6,6,8,9,9,6,8,9,8,8,8,8,9,6,6,6,9,
6,8,3,2,2,5,3,2,5,2,3,5,3,3,2,3,2,5,2,2,5,3,3,2,2,9,6,9,19,19,17,17,21,14,5,5,2,5,5,3,5,2,2,5,2,9,6,8,6,6,6,9,9,9,8,9,6,9,6,6,8,6,8,9,
8,6,3,3,2,5,2,5,3,3,3,5,5,5,5,2,5,3,3,5,3,3,2,3,5,3,9,6,19,21,23,17,21,5,2,3,2,5,5,5,3,5,3,5,3,2,9,6,9,8,9,6,6,6,8,6,6,8,9,8,8,9,8,9,
9,5,3,2,5,2,2,2,5,3,5,3,5,5,3,5,2,5,5,3,3,3,3,2,5,5,3,28,21,21,21,19,21,5,2,3,2,3,3,5,2,3,3,2,3,3,8,9,8,8,9,9,9,6,6,6,6,8,8,9,8,8,6,8,
3,3,3,5,3,3,3,3,3,3,2,2,3,5,2,3,5,3,3,5,5,3,5,5,3,3,3,28,21,16,19,23,16,30,5,3,2,3,2,2,2,3,3,5,3,2,3,8,9,6,6,6,8,8,6,9,6,9,9,6,6,9,8,2,
3,2,2,3,5,2,5,5,3,5,5,2,2,2,2,5,2,3,3,2,5,5,2,2,3,8,6,26,17,16,19,16,19,26,3,3,2,3,2,5,3,2,5,5,2,3,5,9,6,9,8,6,8,9,6,9,8,6,6,9,6,8,6,2,
3,5,5,5,2,2,2,5,5,2,5,3,2,5,3,3,5,5,2,5,3,2,2,5,9,8,6,26,16,19,16,17,21,8,5,3,3,5,5,3,5,3,3,2,2,5,5,9,8,9,8,8,8,9,9,6,9,6,9,8,8,9,3,2,
5,3,5,2,5,2,2,3,3,3,2,3,3,2,5,3,3,3,2,2,3,3,3,6,9,8,8,30,16,21,19,23,21,14,8,9,3,3,2,2,2,5,2,5,3,2,9,8,9,8,6,9,9,9,9,6,6,8,6,8,6,6,5,5,
2,3,3,5,3,2,5,2,2,2,5,2,5,3,5,2,5,2,5,3,2,5,8,8,9,6,8,30,23,21,23,23,19,26,6,8,8,9,2,2,5,2,3,5,5,8,8,8,8,8,8,6,6,8,8,9,6,9,8,6,8,8,8,5,
2,5,3,3,2,2,3,2,2,5,3,5,5,3,2,3,5,2,5,2,6,9,8,9,8,6,9,28,17,17,16,23,19,28,9,6,6,6,6,9,9,9,9,9,8,8,6,8,6,9,6,6,9,9,6,6,8,6,8,6,8,9,6,2,
3,3,5,5,3,3,5,2,2,2,2,3,5,2,5,5,3,3,3,6,6,6,8,8,9,9,6,6,16,21,23,23,16,30,8,9,8,6,8,8,9,9,8,9,6,6,6,9,8,8,6,8,6,8,6,9,9,9,9,6,6,8,6,8,
8,3,3,2,3,5,3,3,2,5,2,3,3,3,5,2,2,5,6,9,8,6,8,9,6,8,9,30,17,21,16,17,23,26,6,9,6,6,6,9,6,8,9,8,6,9,6,8,9,8,8,9,8,9,8,6,6,6,9,9,9,6,8,9,
6,2,2,3,2,3,5,5,2,3,3,5,2,2,3,2,3,9,8,8,8,6,6,9,8,9,9,9,16,23,16,23,19,26,9,6,9,6,9,6,8,6,6,9,6,8,8,6,8,6,8,8,8,6,9,6,8,9,9,6,9,9,8,8,
6,8,5,3,2,3,3,5,3,2,3,5,2,5,5,5,9,6,9,6,6,8,8,9,6,9,8,6,19,17,19,16,21,6,9,9,6,8,9,9,9,6,8,9,6,9,8,6,9,6,9,6,8,8,8,6,8,9,9,8,6,9,6,6
</data>
 </layer>
 <layer id="2" name="Scattered details" width="64" height="64">
  <properties>
   <property name="worldRole" value="cutout" />
  </properties>
  <data encoding="csv">
0,0,0,0,0,0,0,0,0,0,0,0,0,0,0,0,0,0,0,0,0,0,0,0,0,0,0,0,0,0,0,0,0,0,0,0,0,0,0,0,0,0,0,0,0,0,0,0,0,0,0,0,0,0,0,0,0,0,0,0,0,0,0,0,
0,0,0,0,0,0,0,0,0,0,0,0,0,0,0,0,0,0,0,0,0,0,0,0,0,0,0,0,0,0,0,0,0,0,0,0,0,0,0,0,0,0,0,0,0,0,0,0,0,0,0,0,0,0,0,0,0,0,0,0,0,0,0,0,
0,0,0,0,0,0,0,0,0,97,0,0,0,0,0,0,0,0,0,0,0,0,0,0,0,0,0,0,0,0,0,0,0,0,0,0,0,0,0,0,0,0,0,0,0,0,0,0,0,0,0,0,0,0,0,0,0,0,0,0,95,0,0,0,
0,0,0,0,0,0,0,0,0,0,0,0,0,0,0,0,0,0,0,0,0,0,0,0,0,0,0,0,0,0,0,0,0,0,0,0,0,0,0,0,0,0,0,0,0,0,0,0,0,0,0,0,0,0,0,0,98,0,0,0,0,0,0,0,
0,0,0,96,0,0,0,0,0,0,0,0,0,0,0,0,0,0,0,0,0,0,0,0,0,0,0,0,0,0,0,0,0,0,0,0,0,0,0,0,0,0,0,0,0,0,0,0,0,0,98,0,0,0,0,0,0,0,0,0,0,0,0,0,
0,0,0,0,0,0,0,0,0,0,0,0,0,0,0,0,0,0,0,0,0,0,0,0,0,0,0,0,0,0,0,0,0,0,0,0,0,0,0,0,0,0,0,0,0,0,0,0,0,0,0,0,0,0,0,0,0,0,0,97,0,0,0,0,
0,0,0,0,0,0,0,0,0,0,0,0,0,0,0,0,0,0,0,0,0,0,0,0,0,0,0,0,0,0,0,0,0,0,0,0,0,0,0,0,0,0,0,0,0,0,0,0,0,0,0,0,0,0,0,0,0,0,0,0,0,0,0,0,
0,0,0,0,0,0,0,0,0,0,0,97,0,0,0,0,0,0,0,0,0,0,0,0,0,0,0,0,0,0,0,0,0,0,0,0,0,0,0,0,0,0,0,0,0,0,0,0,0,0,0,0,0,0,0,0,0,0,0,0,0,0,0,0,
0,0,0,0,0,0,0,0,0,96,0,0,0,0,95,0,0,0,0,0,0,0,0,0,0,0,0,0,0,0,0,0,0,0,0,0,0,0,0,0,0,0,0,0,0,0,0,0,0,0,0,0,0,0,0,0,0,0,0,0,0,0,0,0,
0,0,0,0,0,0,0,0,0,0,0,0,0,0,0,0,0,0,0,0,0,0,0,0,0,0,0,0,0,0,0,0,0,0,0,0,0,0,0,0,0,0,0,0,0,0,0,0,0,0,0,0,98,0,0,0,0,0,0,0,0,0,0,0,
0,0,0,0,0,0,0,0,0,0,0,0,0,0,0,0,0,0,0,0,0,0,0,0,0,0,0,0,0,0,0,0,0,0,0,0,0,0,0,0,0,0,0,0,0,0,0,0,0,0,0,0,0,95,0,0,0,0,0,0,0,0,0,0,
0,0,0,0,0,0,0,0,0,95,0,0,0,0,0,0,0,0,0,0,0,0,0,0,0,0,0,0,0,0,0,0,0,0,0,0,0,0,0,0,0,0,0,0,0,0,0,0,0,0,0,0,0,0,0,0,0,97,0,0,0,0,0,0,
0,0,0,0,0,0,0,0,0,0,0,0,0,0,0,0,0,0,0,0,0,0,0,0,0,0,0,0,0,0,0,0,0,0,0,0,0,0,0,0,0,0,0,0,0,0,0,0,0,0,0,0,0,0,0,0,0,0,0,0,0,0,0,0,
0,0,0,0,0,0,0,0,0,0,0,0,0,0,0,0,0,0,0,0,97,0,0,0,0,0,0,0,0,0,0,0,0,0,0,0,0,0,0,0,0,0,0,0,0,0,0,0,0,0,0,0,0,0,0,0,0,0,0,0,0,0,0,0,
0,0,0,0,0,0,0,0,0,0,0,0,0,0,0,0,0,0,0,0,0,0,0,0,0,0,0,0,0,0,0,0,0,0,0,0,0,0,0,0,0,0,0,0,0,0,0,0,0,0,0,0,0,0,0,0,0,0,0,0,0,0,0,0,
0,0,0,0,0,0,0,0,0,0,0,0,0,0,0,0,0,0,0,0,0,0,0,0,0,0,0,0,0,0,0,0,0,0,0,0,0,0,0,0,0,0,0,0,0,0,0,0,0,0,0,0,0,0,0,0,0,0,0,0,0,0,0,0,
0,0,0,0,0,0,0,0,0,0,0,0,0,0,0,0,0,0,0,0,0,0,0,0,0,0,0,0,0,0,0,0,0,0,0,0,0,0,0,0,0,0,0,0,0,0,0,0,0,0,0,0,0,0,97,0,0,0,0,0,0,0,0,0,
0,0,0,0,0,0,0,0,0,0,0,0,0,0,0,0,0,0,0,0,0,0,0,0,0,0,0,0,0,0,0,0,0,0,0,0,0,0,0,0,0,0,0,0,0,0,0,0,0,0,0,0,0,0,0,0,0,0,98,0,0,0,0,0,
0,0,0,0,0,0,0,97,0,0,0,0,0,0,96,0,0,0,0,0,0,0,0,0,0,0,0,0,0,0,0,0,0,0,0,0,0,0,0,0,0,0,0,0,0,0,0,0,0,0,0,0,0,0,0,0,0,0,0,0,0,0,0,0,
0,0,0,0,0,0,0,0,0,0,0,0,98,0,0,0,0,0,0,0,0,0,0,0,0,98,0,0,0,0,0,0,0,0,0,0,0,0,0,0,0,95,0,0,0,0,0,0,0,0,0,0,0,0,0,0,0,0,0,0,0,0,0,0,
0,0,0,0,0,0,0,0,0,0,0,0,0,0,0,0,0,0,0,0,0,0,0,0,0,0,0,0,0,0,0,0,0,0,0,0,0,0,0,0,0,0,0,0,0,0,0,0,0,0,0,0,0,0,0,0,0,0,0,0,0,0,0,0,
0,0,0,0,0,0,0,0,0,95,0,0,0,0,0,0,0,0,0,0,0,0,0,0,0,0,0,0,0,0,0,0,0,0,0,0,0,0,0,0,0,0,0,0,0,0,0,0,0,0,0,0,0,0,0,0,0,0,0,0,0,0,0,0,
0,0,0,0,0,0,0,0,0,96,0,0,0,0,0,0,0,0,0,0,0,0,0,0,0,0,0,0,0,0,0,0,0,0,0,0,0,0,0,0,0,0,0,0,0,0,0,0,0,0,0,0,0,0,0,0,0,0,0,0,0,0,0,0,
0,0,0,0,0,97,0,0,0,0,0,0,0,0,0,0,0,0,0,0,0,0,0,0,0,0,0,0,0,0,0,0,0,0,0,0,0,0,0,0,0,0,0,0,0,0,0,0,0,0,0,0,0,0,0,0,0,0,0,0,0,0,0,0,
0,0,0,0,0,0,0,0,0,0,0,0,0,0,0,98,0,0,0,0,0,0,0,0,0,0,0,0,0,0,0,0,0,0,0,0,0,0,0,0,0,0,0,0,0,0,0,0,0,0,0,0,0,0,0,0,0,0,0,0,0,0,0,0,
0,0,0,0,0,0,0,0,0,0,0,0,0,0,0,0,0,0,0,0,0,0,0,0,0,0,0,0,0,0,0,0,0,0,0,0,0,0,0,0,0,0,0,0,0,0,0,0,0,0,0,0,0,0,0,0,0,0,98,0,0,0,0,0,
0,0,0,0,0,0,0,0,0,0,0,0,0,0,0,0,0,0,0,0,0,0,0,0,0,0,0,0,0,0,0,0,0,0,0,0,0,0,0,0,0,0,0,0,0,0,0,0,0,0,0,0,0,0,0,0,0,0,0,0,0,0,0,0,
0,0,0,0,0,0,0,0,0,0,0,0,0,0,0,0,0,0,0,0,0,0,0,0,0,0,0,0,0,0,0,0,0,0,0,0,0,0,0,0,0,0,0,0,0,0,0,0,0,0,0,0,0,0,0,0,0,0,0,0,0,0,0,0,
0,0,0,0,0,0,0,0,0,0,0,0,0,0,0,0,0,0,0,0,0,0,0,0,0,0,0,0,0,0,0,0,0,0,0,0,0,0,0,0,0,0,0,0,0,0,0,0,0,0,0,0,0,0,0,0,0,0,0,0,0,0,0,0,
0,0,0,0,0,0,0,0,0,0,0,0,0,0,0,0,0,0,0,0,0,0,0,0,0,0,0,0,0,0,0,0,0,0,0,0,0,0,0,0,0,0,0,0,0,0,0,0,0,0,0,0,0,0,0,0,0,0,0,0,0,0,0,0,
0,0,0,0,0,0,0,0,0,0,0,0,0,0,0,0,0,0,0,0,0,0,0,0,0,0,0,0,0,0,0,0,0,0,0,0,0,0,0,0,0,0,0,0,0,0,0,0,0,0,0,0,0,0,0,0,0,0,0,0,0,0,0,0,
0,0,0,0,0,0,0,0,0,0,0,0,0,0,0,0,0,0,0,0,0,0,0,0,0,0,0,0,0,0,0,0,0,0,0,0,0,0,0,0,0,0,0,0,0,0,0,0,0,0,0,0,0,0,0,0,0,0,0,0,0,0,0,0,
0,0,0,0,0,0,0,0,0,0,0,0,0,0,0,0,0,0,0,0,0,0,0,0,0,0,0,0,0,0,0,0,0,0,0,0,0,0,0,0,0,0,0,0,0,0,0,0,0,0,0,0,0,0,0,0,0,0,0,0,0,0,0,0,
0,0,0,0,96,0,0,0,0,0,0,0,0,0,0,0,0,0,0,0,0,0,0,0,0,0,0,0,0,0,0,0,0,0,0,0,0,0,0,0,0,0,98,0,0,0,0,0,0,0,0,0,0,0,0,0,0,0,97,0,0,0,0,0,
0,0,0,0,98,0,98,0,0,0,0,0,0,0,0,0,0,0,0,0,0,0,0,0,0,0,0,0,0,0,0,0,0,0,0,0,0,0,0,0,98,0,0,0,0,0,0,0,0,0,0,0,0,0,0,0,0,0,0,0,0,0,0,0,
0,0,0,0,0,0,0,0,0,0,0,0,0,0,0,0,0,0,0,0,0,0,97,0,0,0,0,0,0,0,0,0,0,0,0,0,0,0,0,0,0,0,0,0,0,0,0,0,0,0,0,0,0,0,0,0,0,0,0,0,0,0,0,0,
0,0,0,0,0,0,0,0,0,0,0,0,0,0,0,0,0,0,0,0,0,0,0,0,0,0,0,0,0,0,0,0,0,0,0,0,0,0,0,0,0,0,0,0,0,95,0,0,0,0,0,0,0,0,0,0,0,0,0,0,0,0,0,0,
0,0,0,0,98,0,0,0,0,0,0,0,0,0,0,0,0,0,97,0,0,0,0,0,0,0,0,0,0,0,0,0,0,0,0,0,0,0,0,0,0,0,0,0,0,0,0,0,0,0,0,0,0,0,0,0,0,0,0,0,0,0,0,0,
0,0,0,0,0,0,0,0,0,0,0,0,0,0,0,0,0,0,0,0,0,0,0,0,0,0,0,0,0,0,0,0,0,0,0,0,0,0,0,0,0,0,0,0,0,0,0,0,0,0,0,0,0,0,0,0,0,0,0,0,0,0,0,0,
0,0,0,0,0,0,0,0,0,0,0,0,0,0,0,0,96,0,0,0,0,0,0,0,0,0,0,0,0,0,0,0,0,0,0,0,0,0,0,0,0,0,0,0,0,0,0,0,0,0,0,0,0,0,0,0,0,0,0,0,0,0,0,0,
0,0,0,0,0,0,0,0,95,0,0,0,95,0,0,0,0,0,0,0,0,0,0,0,0,0,0,0,0,0,0,0,0,0,0,0,0,0,0,0,0,0,0,0,0,0,0,0,0,0,0,0,0,0,0,0,0,0,0,0,0,0,0,0,
0,0,0,0,0,0,0,0,0,0,0,0,0,0,0,0,0,0,0,0,0,0,0,96,0,0,0,0,0,0,0,0,0,0,0,0,0,0,0,0,0,0,0,0,0,0,0,0,0,0,0,0,0,98,0,0,0,0,0,0,0,0,0,0,
0,0,0,0,0,0,0,0,0,0,0,0,0,0,0,0,0,0,0,0,0,0,0,0,0,0,0,0,0,0,0,0,0,0,0,0,0,0,0,0,0,0,0,0,0,0,0,0,0,0,0,0,0,0,0,0,0,0,0,0,0,0,0,0,
0,0,0,0,0,0,0,0,0,0,0,0,0,0,0,0,0,0,0,0,0,0,0,0,0,0,0,0,0,0,0,0,0,0,0,0,0,0,0,0,0,0,0,0,0,0,0,0,0,0,0,0,0,0,0,0,0,0,0,0,0,0,0,0,
0,0,0,0,0,0,0,0,0,0,0,0,0,0,0,0,0,0,0,0,0,0,0,0,0,0,0,0,0,0,0,0,0,0,0,0,0,0,0,0,0,0,0,0,0,0,0,0,0,0,0,0,0,0,0,0,0,0,0,0,98,0,0,0,
0,0,0,0,0,0,0,0,0,0,0,0,0,0,0,0,0,0,0,0,0,0,0,0,0,0,0,0,0,0,0,0,0,0,0,0,0,0,0,0,0,0,0,0,0,0,0,0,0,0,0,0,0,0,0,0,0,0,0,0,0,0,0,0,
0,0,97,0,0,0,0,0,0,0,0,0,0,0,0,0,0,0,0,0,0,0,0,0,0,0,0,0,0,0,0,0,0,0,0,0,0,0,0,0,0,0,0,0,0,0,0,0,0,0,0,0,0,0,0,0,97,96,0,0,0,0,0,0,
0,0,0,0,0,0,0,0,0,0,0,0,0,97,0,0,0,0,0,0,0,0,0,0,0,0,0,0,0,0,0,0,0,0,0,0,0,0,0,0,0,0,0,0,0,0,0,0,0,0,0,0,0,0,0,0,0,0,0,0,0,0,0,0,
0,0,0,0,0,0,0,0,0,0,0,0,0,0,0,0,0,0,0,0,0,0,0,0,0,0,0,0,0,0,0,0,0,0,0,0,0,0,0,0,0,0,0,0,0,0,0,0,0,0,0,0,0,0,0,0,0,0,0,0,0,0,0,0,
0,0,0,0,0,0,0,0,0,0,97,0,0,0,0,0,0,0,0,0,0,0,0,0,0,0,0,0,0,0,0,0,0,0,0,0,0,0,0,0,0,0,0,0,0,0,0,0,0,0,0,0,0,96,0,0,0,0,0,0,0,0,0,0,
0,0,0,0,0,0,0,0,0,0,0,0,0,0,0,0,0,0,0,0,0,0,0,0,0,0,0,0,0,0,0,0,0,0,0,0,0,0,0,0,0,0,0,0,0,0,0,0,0,0,0,0,0,0,0,0,0,0,0,0,0,0,0,0,
0,0,0,0,0,0,0,0,96,0,0,0,0,0,0,0,0,0,0,0,0,0,0,0,0,0,0,0,0,0,0,0,0,0,0,0,0,0,0,0,0,98,0,0,0,0,0,0,0,0,0,0,0,0,0,0,0,0,0,0,0,0,0,0,
0,0,0,0,0,0,0,0,0,0,0,0,0,0,0,0,0,0,0,0,0,0,0,0,0,0,0,0,0,0,0,0,0,0,0,0,0,0,0,0,0,0,0,0,0,0,0,0,0,0,0,0,96,0,0,0,0,0,97,0,0,96,0,0,
0,0,0,0,0,0,0,0,0,0,98,0,0,0,0,0,0,0,0,0,0,0,0,0,0,0,0,0,0,0,0,0,0,0,0,0,0,0,0,0,0,0,0,0,0,0,0,0,0,0,0,0,0,0,0,0,0,0,0,0,0,0,0,0,
0,0,0,0,0,0,0,0,0,0,0,0,0,0,0,0,0,0,0,0,0,0,0,0,0,0,0,0,0,0,0,0,0,0,0,0,0,0,0,0,0,0,0,0,0,0,0,0,0,0,0,0,0,0,0,0,0,0,0,0,97,0,0,0,
0,0,0,0,0,0,0,0,0,0,0,0,97,0,0,0,0,0,0,0,0,0,0,0,0,0,0,0,0,0,0,0,0,0,0,0,0,0,0,0,0,0,0,0,0,0,0,0,0,0,0,0,0,0,0,0,0,0,0,0,0,0,0,0,
0,0,0,0,0,0,0,0,0,0,0,0,0,0,0,0,0,0,0,0,0,0,0,0,0,95,0,0,0,0,0,0,0,0,0,0,0,0,0,0,0,0,0,0,0,0,0,0,0,0,0,0,0,0,0,0,0,0,0,0,0,0,0,0,
0,0,0,0,0,0,0,0,0,0,0,0,0,0,95,0,96,0,0,0,0,0,0,0,0,0,0,0,0,0,0,0,0,0,0,0,0,0,0,0,0,0,0,0,0,0,0,0,0,0,0,0,0,0,0,0,0,0,0,0,0,0,0,0,
0,0,0,0,0,0,0,0,0,0,0,0,0,0,0,0,0,0,0,0,0,0,0,0,0,0,0,0,0,0,0,0,0,0,0,0,0,0,0,0,0,0,0,0,0,0,0,0,0,0,0,0,0,0,0,98,0,0,0,0,0,0,0,0,
0,0,0,0,0,0,0,0,0,0,0,0,0,0,0,0,0,0,0,0,0,0,0,0,0,0,0,0,0,0,0,0,0,0,0,0,0,0,0,0,0,0,0,0,0,0,0,0,0,0,0,0,0,0,0,0,0,0,0,0,0,0,0,0,
0,0,0,0,0,0,0,0,0,0,0,0,0,0,0,96,0,0,95,0,0,0,0,0,0,0,0,0,0,0,0,0,0,0,0,0,0,0,0,0,0,0,0,0,0,0,0,0,0,0,0,0,0,96,0,0,0,0,0,0,0,0,0,0,
0,0,0,0,0,0,0,97,0,0,0,0,0,0,0,0,0,0,0,0,0,0,0,0,0,0,0,0,0,0,0,0,0,0,0,0,0,0,0,0,0,0,0,0,98,0,0,0,0,0,0,0,0,0,0,0,0,0,0,0,0,0,0,0,
0,0,0,0,0,0,0,0,0,0,0,0,0,0,0,0,0,0,0,0,0,0,0,0,0,0,0,0,0,0,0,0,0,0,0,0,0,0,0,0,0,0,0,0,0,0,0,0,0,0,0,0,0,0,0,0,0,0,0,0,0,0,0,0,
0,0,0,0,0,0,0,0,0,0,0,0,0,0,0,0,0,0,0,0,0,0,0,0,0,0,0,0,0,0,0,0,0,0,0,0,0,0,0,0,0,0,0,0,0,0,0,0,0,0,0,0,0,0,0,0,0,0,0,0,0,0,0,0
</data>
 </layer>
</map>
